!!!!SEGMENT: pl-stab--8a--001-001_dankowski-adalbert--requiem-requiem-aeternam.krn
!!!cenid: 18xx:3475
!!!COM: Dankowski, Adalbert
!!!COM-rismID: pe30000793
!!!CDT: ~1760-~1836
!!!CNT: Polish
!!!OPR: Requiem
!!!OTL: Requiem aeternam
!!!OMV: 001
!!!PDT:
!!!AGN:
!!!YEC: Copyright 2022 Narodowy Instytut Fryderyka Chopina (https://polishscores.org)
!!!YEM: License CC-BY-4.0 (https://creativecommons.org/licenses/by/4.0)
!!!SMS-siglum: PL-STAb
!!!SMS-shelfmark: 8a
!!!SMS-shelfwork: 001-001 M
!!!SMS-variant:
!!!SMS-altvar:
!!!NIFC-rismSourceID: 301050561
!!!NIFC-rismChildID: 301050561
!!!NIFC-islandoraID: pl-stab:1903
!!!URL-pdf-islandora: https://repozytorium.nifc.pl/islandora/object/pl-stab%3A1903/datastream/PDF/view
!!!URL-scan: https://polish.musicsources.pl/pl/lokalizacje/galeria/rekopisy/4640 @EN{Scan on Polish Music Sources Website} @PL{Skany w portalu Dziedzictwo Muzyki Polskiej w otwartym dostępie}
!!!IIIF:
!!!ONB-nifc: UWAGA: części Requiem: 1. Requiem aeternam, 2. Kyrie, 3. Dies irae, 4. Domine Jesu Christe, 5. Sanctus, 6. Benedictus, 7. Agnus Dei, 8. Lux aeterna
!!!AIN: 1 alto 1 bass 2 clars 2 cor 1 organ 1 soprn 1 tenor 2 violn
!!!key: E-
!!!OMD:
!!!OMD-mod: Adagio
**kern	**fba	**dynam	**kern	**dynam	**kern	**dynam	**kern	**text	**dynam	**kern	**text	**kern	**text	**kern	**text	**kern	**kern	**kern	**dynam	**kern
*	*	*	*group4	*	*group4	*	*group3	*	*	*group3	*	*group3	*	*group3	*	*group2	*group2	*group1	*	*group1
*part11	*	*	*part10	*	*part9	*	*part8	*	*	*part7	*	*part6	*	*part5	*	*part4	*part3	*part2	*	*part1
*staff11	*	*	*staff10	*	*staff9	*	*staff8	*	*	*staff7	*	*staff6	*	*staff5	*	*staff4	*staff3	*staff2	*	*staff1
*I"Organo	*	*	*I"Violino Secundo	*	*I"Violino Primo	*	*I"Baſso	*	*	*I"Tenor	*	*I"Alto	*	*I"Canto	*	*I"Cornu Secundo in Dis	*I"Cornu Primo in Dis	*I"Clarinetto Secundo in Es!	*	*I"Clarinetto Primo in Es
*	*	*	*mI"Violino II	*	*mI"Violino I	*	*mI"Basso	*	*	*mI"Tenore	*	*	*	*mI"Soprano	*	*mI"Corno II in Eb	*mI"Corno I in Eb	*mI"Clarinetto II in Bb	*	*mI"Clarinetto I in Bb
*I'org	*	*	*I'vl 2	*	*I'vl 1	*	*I'B	*	*	*I'T	*	*I'A	*	*I'S	*	*I'cor 2 in Dis	*I'cor 1 in Dis	*I'cl 2 in E|b	*	*I'cl 1 in E|b
*	*	*	*	*	*	*	*	*	*	*	*	*	*	*	*	*mI'cor 2 in E|b	*mI'cor 1 in E|b	*mI'cl 1 in B|b	*	*mI'cl 1 in B|b
*Iorgan	*	*	*Ivioln	*	*Ivioln	*	*Ibass	*	*	*Itenor	*	*Ialto	*	*Isoprn	*	*Icor	*Icor	*Iclars	*	*Iclars
*ICklav	*	*	*ICstr	*	*ICstr	*	*ICvox	*	*	*ICvox	*	*ICvox	*	*ICvox	*	*ICbras	*ICbras	*ICww	*	*ICww
*IGcont	*	*	*	*	*	*	*IGcoro	*	*	*IGcoro	*	*IGcoro	*	*IGcoro	*	*	*	*	*	*
*clefF4	*	*	*clefG2	*	*clefG2	*	*clefF4	*	*	*clefC4	*	*clefC3	*	*clefC1	*	*clefG2	*clefG2	*clefG2	*	*clefG2
*	*	*	*	*	*	*	*	*	*	*	*	*	*	*	*	*ITrd5c9	*ITrd5c9	*ITrd1c2	*	*ITrd1c2
*k[b-e-a-]	*	*	*k[b-e-a-]	*	*k[b-e-a-]	*	*k[b-e-a-]	*	*	*k[b-e-a-]	*	*k[b-e-a-]	*	*k[b-e-a-]	*	*k[b-e-a-]	*k[b-e-a-]	*k[b-e-a-]	*	*k[b-e-a-]
*E-:	*	*	*E-:	*	*E-:	*	*E-:	*	*	*E-:	*	*E-:	*	*E-:	*	*E-:	*E-:	*E-:	*	*E-:
*M4/4	*	*	*M4/4	*	*M4/4	*	*M4/4	*	*	*M4/4	*	*M4/4	*	*M4/4	*	*M4/4	*M4/4	*M4/4	*	*M4/4
*met(C.)	*	*	*met(c)	*	*met(C.)	*	*met(C.)	*	*	*met(c)	*	*met(c)	*	*met(C.)	*	*met(c)	*met(c)	*met(c)	*	*met(c)
*mmet(c)	*	*	*mmet(c)	*	*mmet(c)	*	*mmet(c)	*	*	*mmet(c)	*	*mmet(c)	*	*mmet(c)	*	*mmet(c)	*mmet(c)	*mmet(c)	*	*mmet(c)
=1	=1	=1	=1	=1	=1	=1	=1	=1	=1	=1	=1	=1	=1	=1	=1	=1	=1	=1	=1	=1
!LO:TX:a:i:t=Solo	!	!	!LO:TX:a:i:t=Solo	!	!LO:TX:a:i:t=Solo	!	!	!	!	!	!	!	!	!	!	!	!	!LO:TX:a:t=P:problem=błędna nazwa partii - powinna być in B|b	!	!LO:TX:a:t=P:problem=błędna nazwa partii - powinna być in B|b
!LO:TX:a:B:t=Adagio:mod=	!	!	!LO:TX:a:B:t=Adagio:mod=	!	!LO:TX:a:B:t=Adagio:mod=	!	!LO:TX:a:B:t=Adagio:mod=	!	!	!LO:TX:a:B:t=Adagio:mod=	!	!LO:TX:a:B:t=Adagio:mod=	!	!LO:TX:a:B:t=Adagio:mod=	!	!LO:TX:a:B:t=Adagio:mod=	!LO:TX:a:B:t=Adagio:mod=	!LO:TX:a:B:t=Adagio:mod=	!	!LO:TX:a:B:t=Adagio:mod=
8E-\L	.	.	[4g/	.	[4b-/	.	00r	.	.	00r	.	00r	.	00r	.	1r	1r	1r	.	1r
8E-\	.	.	.	.	.	.	.	.	.	.	.	.	.	.	.	.	.	.	.	.
8E-\J	.	.	16g/LL]	.	16b-/LL]	.	.	.	.	.	.	.	.	.	.	.	.	.	.	.
.	.	.	16e-/	.	16g/	.	.	.	.	.	.	.	.	.	.	.	.	.	.	.
8r	.	.	16f/	.	16a-/	.	.	.	.	.	.	.	.	.	.	.	.	.	.	.
.	.	.	16g/JJ	.	16b-/JJ	.	.	.	.	.	.	.	.	.	.	.	.	.	.	.
8E-\L	6_ 4_	.	[4a-/	.	[4cc\	.	.	.	.	.	.	.	.	.	.	.	.	.	.	.
8E-\	.	.	.	.	.	.	.	.	.	.	.	.	.	.	.	.	.	.	.	.
8E-\J	.	.	16a-/LL]	.	16cc\LL]	.	.	.	.	.	.	.	.	.	.	.	.	.	.	.
.	.	.	16cc/	.	16ee-\	.	.	.	.	.	.	.	.	.	.	.	.	.	.	.
8r	x	.	16b-/	.	16dd\	.	.	.	.	.	.	.	.	.	.	.	.	.	.	.
.	.	.	16a-/JJ	.	16cc\JJ	.	.	.	.	.	.	.	.	.	.	.	.	.	.	.
=2	=2	=2	=2	=2	=2	=2	=2	=2	=2	=2	=2	=2	=2	=2	=2	=2	=2	=2	=2	=2
8E-\L	3_	.	8.g/L	.	8.b-/L	.	.	.	.	.	.	.	.	.	.	2r	2r	2r	.	2r
8E-\	.	.	.	.	.	.	.	.	.	.	.	.	.	.	.	.	.	.	.	.
.	.	.	(32f/LL	.	(32a-/LL	.	.	.	.	.	.	.	.	.	.	.	.	.	.	.
.	.	.	32g/JJJ)	.	32b-/JJJ)	.	.	.	.	.	.	.	.	.	.	.	.	.	.	.
8E-\	.	.	16a-/LL	.	16cc/LL	.	.	.	.	.	.	.	.	.	.	.	.	.	.	.
.	.	.	16g/	.	16b-/	.	.	.	.	.	.	.	.	.	.	.	.	.	.	.
8E-\J	.	.	16f/	.	16a-/	.	.	.	.	.	.	.	.	.	.	.	.	.	.	.
.	.	.	16e-/JJ	.	16g/JJ	.	.	.	.	.	.	.	.	.	.	.	.	.	.	.
!	!	!	!LO:TUP:b:problem=klamra łukowa	!	!LO:TUP:b:problem=klamra łukowa	!	!	!	!	!	!	!	!	!	!	!	!	!	!	!
8B-\L	3	.	24d/LL	.	24f/LL	.	.	.	.	.	.	.	.	.	.	4r	4r	4r	.	4r
.	.	.	24e-/	.	24g/	.	.	.	.	.	.	.	.	.	.	.	.	.	.	.
.	.	.	24f/J	.	24a-/J	.	.	.	.	.	.	.	.	.	.	.	.	.	.	.
8e-\	.	.	8e-/J	.	8g/J	.	.	.	.	.	.	.	.	.	.	.	.	.	.	.
8E-\J	.	.	16r	.	16r	.	.	.	.	.	.	.	.	.	.	4G/	4e-\	4g/	.	4ee-\
.	.	.	16g/LL	.	16b-/LL	.	.	.	.	.	.	.	.	.	.	.	.	.	.	.
8r	.	.	16f/	.	16a-/	.	.	.	.	.	.	.	.	.	.	.	.	.	.	.
.	.	.	16e-/JJ	.	16g/JJ	.	.	.	.	.	.	.	.	.	.	.	.	.	.	.
=3	=3	=3	=3	=3	=3	=3	=3	=3	=3	=3	=3	=3	=3	=3	=3	=3	=3	=3	=3	=3
*	*	*	*	*	*	*	*	*	*	*	*	*	*	*	*	*2\right	*2\right	*2\right	*	*2\right
8B-\	.	.	16e-/LL	.	16g/LL	.	.	.	.	.	.	.	.	.	.	2B-/	2f\	2dd\	.	2ff\
.	.	.	16d/J	.	16f/J	.	.	.	.	.	.	.	.	.	.	.	.	.	.	.
8r	.	.	8d/J	.	8f/J	.	.	.	.	.	.	.	.	.	.	.	.	.	.	.
8BB-/	.	.	16r	.	16r	.	.	.	.	.	.	.	.	.	.	.	.	.	.	.
.	.	.	16d/LL	.	16f/LL	.	.	.	.	.	.	.	.	.	.	.	.	.	.	.
8r	.	.	16d/	.	16b-/	.	.	.	.	.	.	.	.	.	.	.	.	.	.	.
.	.	.	16f/JJ	.	16a-/JJ	.	.	.	.	.	.	.	.	.	.	.	.	.	.	.
8E-\	.	.	16f/LL	.	16a-/LL	.	.	.	.	.	.	.	.	.	.	2e-\	2g\	2ee-\	.	2gg\
.	.	.	16e-/J	.	16g/J	.	.	.	.	.	.	.	.	.	.	.	.	.	.	.
8r	.	.	8e-/J	.	8g/J	.	.	.	.	.	.	.	.	.	.	.	.	.	.	.
8E-\	.	.	16r	.	16r	.	.	.	.	.	.	.	.	.	.	.	.	.	.	.
.	.	.	16e-/LL	.	16g/LL	.	.	.	.	.	.	.	.	.	.	.	.	.	.	.
8r	.	.	16f/	.	16a-/	.	.	.	.	.	.	.	.	.	.	.	.	.	.	.
.	.	.	16g/JJ	.	16b-/JJ	.	.	.	.	.	.	.	.	.	.	.	.	.	.	.
!	!	!	!LO:LB:g=original	!	!LO:LB:g=original	!	!	!	!	!	!	!	!	!	!	!	!	!	!	!
=4	=4	=4	=4	=4	=4	=4	=4	=4	=4	=4	=4	=4	=4	=4	=4	=4	=4	=4	=4	=4
!LO:TX:t=P:problem=mixed beam	!	!	!	!	!	!	!	!	!	!	!	!	!	!	!	!	!	!	!	!
8A-\L	6_	.	16f/LL	.	16a-/LL	.	.	.	.	.	.	.	.	.	.	4f\	4a-\	4ff\	.	4aa-\
.	.	.	16a-/	.	16cc/	.	.	.	.	.	.	.	.	.	.	.	.	.	.	.
8A-\	.	.	16g/	.	16b-/	.	.	.	.	.	.	.	.	.	.	.	.	.	.	.
.	.	.	16f/JJ	.	16a-/JJ	.	.	.	.	.	.	.	.	.	.	.	.	.	.	.
8B-\	4	.	8e-/L	.	8g/L	.	.	.	.	.	.	.	.	.	.	8e-\L	8g\L	8ee-\L	.	8gg\L
8BB-/J	3	.	8d/J	.	8f/J	.	.	.	.	.	.	.	.	.	.	8B-\J	8f\J	8dd\J	.	8ff\J
8E-\L	.	.	8e-/L	.	8g/L	.	.	.	.	.	.	.	.	.	.	8G/L	8e-\L	8ee-\L	.	8gg\L
8E-\	.	.	8e-/	.	8g/	.	.	.	.	.	.	.	.	.	.	8G/	8e-\	8ee-\	.	8gg\
8E-\J	.	.	8e-/J	.	8g/J	.	.	.	.	.	.	.	.	.	.	8G/J	8e-\J	8ee-\J	.	8gg\J
8r	.	.	8r	.	8r	.	.	.	.	.	.	.	.	.	.	8r	8r	8r	.	8r
!LO:LB:g=original	!	!	!	!	!	!	!	!	!	!	!	!	!	!	!	!	!	!	!	!
=5	=5	=5	=5	=5	=5	=5	=5	=5	=5	=5	=5	=5	=5	=5	=5	=5	=5	=5	=5	=5
!	!	!LO:MO:null:mod=!LO&colon;DY&colon;ed=brack	!	!	!	!	!	!	!	!	!	!	!	!	!	!	!	!	!	!
!LO:MO:mod=!LO&colon;TX&colon;a&colon;i&colon;t=Tutti	!	!	!	!	!	!	!	!	!	!	!	!	!	!	!	!	!	!	!	!
!LO:TX:a:t=Tutti	!	!LO:MO:null:mod=f	!	!LO:DY:a:t=f&colon;	!	!LO:DY:a	!	!	!	!	!	!	!	!	!	!	!	!	!	!
8E-\L	.	.	[4g/	f	[4b-/	f	8.E-\	Re-	.	8.e-\	Re-	8.g\	Re-	8.b-\	Re-	1r	1r	1r	.	1r
8E-\	.	.	.	.	.	.	.	.	.	.	.	.	.	.	.	.	.	.	.	.
.	.	.	.	.	.	.	16E-\	-qui-	.	16e-\	-qui-	16g\	-qui-	16b-\	-qui-	.	.	.	.	.
8E-\J	.	.	16g/LL]	.	16b-/LL]	.	8E-\	-em	.	8e-\	-em	8g\	-em	8b-\	-em	.	.	.	.	.
.	.	.	16e-/	.	16g/	.	.	.	.	.	.	.	.	.	.	.	.	.	.	.
8r	.	.	16f/	.	16a-/	.	8r	.	.	8r	.	8r	.	8r	.	.	.	.	.	.
.	.	.	16g/JJ	.	16b-/JJ	.	.	.	.	.	.	.	.	.	.	.	.	.	.	.
*	*	*	*	*	*	*	*	*ij	*	*	*ij	*	*ij	*	*ij	*	*	*	*	*
8E-\L	6 4	.	[4a-/	.	[4cc\	.	8.E-\	Re-	.	8.e-\	Re-	8.a-\	Re-	8.cc\	Re-	.	.	.	.	.
8E-\	.	.	.	.	.	.	.	.	.	.	.	.	.	.	.	.	.	.	.	.
.	.	.	.	.	.	.	16E-\	-qui-	.	16e-\	-qui-	16a-\	-qui-	16cc\	-qui-	.	.	.	.	.
8E-\J	.	.	16a-/LL]	.	16cc\LL]	.	8E-\	-em	.	8e-\	-em	8a-\	-em	8cc\	-em	.	.	.	.	.
.	.	.	16cc/	.	16ee-\	.	.	.	.	.	.	.	.	.	.	.	.	.	.	.
8r	.	.	16b-/	.	16dd\	.	8r	.	.	8r	.	8r	.	8r	.	.	.	.	.	.
.	.	.	16a-/JJ	.	16cc\JJ	.	.	.	.	.	.	.	.	.	.	.	.	.	.	.
=6	=6	=6	=6	=6	=6	=6	=6	=6	=6	=6	=6	=6	=6	=6	=6	=6	=6	=6	=6	=6
8E-\L	3_	.	8.g/L	.	8.b-/L	.	8.E-\	Re-	.	8.e-\	Re-	8.g\	Re-	8.b-\	Re-	2r	2r	2r	.	2r
8E-\	.	.	.	.	.	.	.	.	.	.	.	.	.	.	.	.	.	.	.	.
.	.	.	(32f/LL	.	(32a-/LL	.	16E-\	-qui-	.	16e-\	-qui-	16g\	-qui-	16b-\	-qui-	.	.	.	.	.
.	.	.	32g/JJJ)	.	32b-/JJJ)	.	.	.	.	.	.	.	.	.	.	.	.	.	.	.
8E-\	.	.	16a-/LL	.	16cc/LL	.	8E-\	-em	.	8e-\	-em	8g\	-em	8b-\	-em	.	.	.	.	.
*	*	*	*	*	*	*	*	*Xij	*	*	*Xij	*	*Xij	*	*Xij	*	*	*	*	*
.	.	.	16g/	.	16b-/	.	.	.	.	.	.	.	.	.	.	.	.	.	.	.
8E-\J	.	.	16f/	.	16a-/	.	8E-\	ae-	.	8B-\	ae-	8g\	ae-	8ee-\	ae-	.	.	.	.	.
.	.	.	16e-/JJ	.	16g/JJ	.	.	.	.	.	.	.	.	.	.	.	.	.	.	.
!	!	!	!LO:TUP:b:problem=klamra łukowa	!	!LO:TUP:b:problem=klamra łukowa	!	!	!	!	!	!	!	!	!	!	!	!	!	!	!
8B-\L	7	.	24d/LL	.	24f/LL	.	8B-\	-ter-	.	8B-\	-ter-	8f\	-ter-	8dd\	-ter-	4r	4r	4r	.	4r
.	.	.	24e-/	.	24g/	.	.	.	.	.	.	.	.	.	.	.	.	.	.	.
.	.	.	24f/J	.	24a-/J	.	.	.	.	.	.	.	.	.	.	.	.	.	.	.
8e-\	.	.	8e-/J	.	8g/J	.	8E-\	-nam	.	8B-\	-nam	8g\	-nam	8ee-\	-nam	.	.	.	.	.
8E-\J	.	.	16r	.	16r	.	4r	.	.	4r	.	4r	.	4r	.	4G/	4e-\	4g/	.	4ee-\
.	.	.	16g/LL	.	16b-/LL	.	.	.	.	.	.	.	.	.	.	.	.	.	.	.
8r	.	.	16f/	.	16a-/	.	.	.	.	.	.	.	.	.	.	.	.	.	.	.
.	.	.	16e-/JJ	.	16g/JJ	.	.	.	.	.	.	.	.	.	.	.	.	.	.	.
=7	=7	=7	=7	=7	=7	=7	=7	=7	=7	=7	=7	=7	=7	=7	=7	=7	=7	=7	=7	=7
!	!	!	!	!	!	!	!	!LO:MO:mod=do-	!	!	!LO:MO:mod=do-	!	!LO:MO:mod=do-	!	!LO:MO:mod=do-	!	!	!	!	!
8B-\	.	.	16e-/LL	.	16g/LL	.	4BB-/	Do-	.	4B-\	Do-	4f\	Do-	4dd\	Do-	2B-/	2f\	2dd\	.	2ff\
.	.	.	16d/J	.	16f/J	.	.	.	.	.	.	.	.	.	.	.	.	.	.	.
8r	.	.	8d/J	.	8f/J	.	.	.	.	.	.	.	.	.	.	.	.	.	.	.
8BB-/	.	.	16r	.	16r	.	4BB-/	-na	.	4B-\	-na	4f\	-na	4dd\	-na	.	.	.	.	.
.	.	.	16d/LL	.	16f/LL	.	.	.	.	.	.	.	.	.	.	.	.	.	.	.
8r	.	.	16d/	.	16b-/	.	.	.	.	.	.	.	.	.	.	.	.	.	.	.
.	.	.	16f/JJ	.	16a-/JJ	.	.	.	.	.	.	.	.	.	.	.	.	.	.	.
8E-\	.	.	16f/LL	.	16a-/LL	.	4E-\	e-	.	4B-\	e-	4g\	e-	4ee-\	e-	2e-\	2g\	2ee-\	.	2gg\
.	.	.	16e-/J	.	16g/J	.	.	.	.	.	.	.	.	.	.	.	.	.	.	.
8r	.	.	8e-/J	.	8g/J	.	.	.	.	.	.	.	.	.	.	.	.	.	.	.
!	!	!	!LO:LB:g=original	!	!	!	!	!	!	!	!	!	!	!	!	!	!	!	!	!
8E-\	.	.	16r	.	16r	.	4E-\	-is	.	4B-\	-is	4g\	-is	4ee-\	-is	.	.	.	.	.
.	.	.	16e-/LL	.	16g/LL	.	.	.	.	.	.	.	.	.	.	.	.	.	.	.
8r	.	.	16f/	.	16a-/	.	.	.	.	.	.	.	.	.	.	.	.	.	.	.
.	.	.	16g/JJ	.	16b-/JJ	.	.	.	.	.	.	.	.	.	.	.	.	.	.	.
!	!	!	!	!	!LO:LB:g=original	!	!	!	!	!	!	!LO:LB:g=original	!	!	!	!	!	!LO:LB:g=original	!	!
=8	=8	=8	=8	=8	=8	=8	=8	=8	=8	=8	=8	=8	=8	=8	=8	=8	=8	=8	=8	=8
*	*	*	*	*	*	*	*	*ij	*	*	*ij	*	*ij	*	*ij	*	*	*	*	*
8A-\L	6_	.	(8.a-/L	.	(8.cc\L	.	4.A-\	e-	.	4.c\	e-	4.a-\	e-	4.ff\	e-	4.f\	4.a-\	4.ff\	.	4.aa-\
8A-\	.	.	.	.	.	.	.	.	.	.	.	.	.	.	.	.	.	.	.	.
.	.	.	16g/Jk)	.	16b-\Jk)	.	.	.	.	.	.	.	.	.	.	.	.	.	.	.
8A-\	.	.	16g/LL	.	16b-/LL	.	.	.	.	.	.	.	.	.	.	.	.	.	.	.
.	.	.	16f/	.	16a-/	.	.	.	.	.	.	.	.	.	.	.	.	.	.	.
8An\J	5	.	16f/	.	16a-/	.	8An\	-is	.	8c\	-is	8g\	-is	8ee-\	-is	8e-\	8g\	8ee-\	.	8gg\
*	*	*	*	*	*	*	*	*Xij	*	*	*Xij	*	*Xij	*	*Xij	*	*	*	*	*
.	.	.	16e-/JJ	.	16g/JJ	.	.	.	.	.	.	.	.	.	.	.	.	.	.	.
!LO:TX:t=P:problem=mixed beam	!	!	!	!	!LO:SIC:o=8.g/L	!	!LO:LB:g=original	!	!	!	!	!	!	!LO:LB:g=original	!	!	!	!	!	!
8B-\L	4_	.	(8.e-/L	.	(8.gL	.	8.B-\	Do-	.	8.B-\	Do-	8.g\	Do-	8.ee-\	Do-	4e-\	4g\	4ee-\	.	4gg\
8B-\	.	.	.	.	.	.	.	.	.	.	.	.	.	.	.	.	.	.	.	.
.	.	.	32d/LL	.	32f/LL	.	16B-\	-mi-	.	16B-\	-mi-	16g\	-mi-	16ee-\	-mi-	.	.	.	.	.
!	!	!	!	!	!LO:SIC:o=32g/JJJ	!	!	!	!	!	!	!	!	!	!	!	!	!	!	!
.	.	.	32e-/JJJ)	.	32gJJJ)	.	.	.	.	.	.	.	.	.	.	.	.	.	.	.
8BB-/J	3	.	8d/	.	8f/	.	8BB-/	-ne	.	8B-\	-ne	8f\	-ne	8dd\	-ne	8B-/	8f\	8dd\	.	8ff\
8r	.	.	8r	.	8r	.	8r	.	.	8r	.	8r	.	8r	.	8r	8r	8r	.	8r
!	!	!	!	!	!	!	!	!	!	!LO:LB:g=original	!	!	!	!	!	!	!LO:LB:g=original	!	!	!LO:LB:g=original
=9	=9	=9	=9	=9	=9	=9	=9	=9	=9	=9	=9	=9	=9	=9	=9	=9	=9	=9	=9	=9
!	!	!LO:MO:null:mod=!LO&colon;DY&colon;ed=brack	!	!	!	!	!	!	!	!	!	!	!	!	!	!	!	!	!	!
!	!	!	!	!	!	!	!	!	!	!	!	!	!	!	!	!	!	!	!	!
!	!	!LO:MO:null:mod=p	!	!LO:DY:a	!	!LO:DY:a	!	!	!	!	!LO:MO:mod=et	!	!	!	!LO:MO:mod=et	!	!	!	!	!
8BB-/L	.	.	8d/L	p	4f/	p	4B-\	et	.	4f\	(et)	4b-\	et	4dd\	Et	0r	0r	0r	.	0r
8BB-/	.	.	8d/	.	.	.	.	.	.	.	.	.	.	.	.	.	.	.	.	.
8BB-/	.	.	8d/	.	16f/LL	.	8B-\	lux	.	8f\	lux	8b-\	lux	8dd\	lux	.	.	.	.	.
.	.	.	.	.	16g/	.	.	.	.	.	.	.	.	.	.	.	.	.	.	.
8BB-/J	.	.	8d/J	.	16an/	.	8B-\	per-	.	8f\	per-	8b-\	per-	8dd\	per-	.	.	.	.	.
.	.	.	.	.	16b-/JJ	.	.	.	.	.	.	.	.	.	.	.	.	.	.	.
*tremolo	*	*	*	*	*	*	*	*	*	*	*	*	*	*	*	*	*	*	*	*
!	!	!	!LO:SIC:o=8.d/L	!	!	!	!	!	!	!	!	!	!	!	!	!	!	!	!	!
8BB-/L	.	.	(8.dL	.	(8.f/L	.	8.B-\	-pe-	.	8.f\	-pe-	8.b-\	-pe-	8.dd\	-pe-	.	.	.	.	.
8BB-/	.	.	.	.	.	.	.	.	.	.	.	.	.	.	.	.	.	.	.	.
.	.	.	32c/LL	.	32e-/LL	.	16B-\	-tu-	.	16f\	-tu-	16b-\	-tu-	16dd\	-tu-	.	.	.	.	.
!	!	!	!LO:SIC:o=32d/JJJ	!	!	!	!	!	!	!	!	!	!	!	!	!	!	!	!	!
.	.	.	32dJJJ)	.	32f/JJJ)	.	.	.	.	.	.	.	.	.	.	.	.	.	.	.
8BB-/	.	.	16e-/LL	.	16g/LL	.	4B-\	-a	.	4f\	-a	4b-\	-a	4dd\	-a	.	.	.	.	.
.	.	.	16d/	.	16f/	.	.	.	.	.	.	.	.	.	.	.	.	.	.	.
8BB-/J	.	.	16c/	.	16e-/	.	.	.	.	.	.	.	.	.	.	.	.	.	.	.
.	.	.	16B-/JJ	.	16d/JJ	.	.	.	.	.	.	.	.	.	.	.	.	.	.	.
=10	=10	=10	=10	=10	=10	=10	=10	=10	=10	=10	=10	=10	=10	=10	=10	=10	=10	=10	=10	=10
*2\right	*	*	*	*	*	*	*	*	*	*	*	*	*	*	*	*	*	*	*	*
8F\L	n	.	(16B-/LL	.	(16d/LL	.	4F\	lu-	.	4f\	lu-	4an\	lu-	4cc\	lu-	.	.	.	.	.
.	.	.	16An/)	.	16c/)	.	.	.	.	.	.	.	.	.	.	.	.	.	.	.
8F\	.	.	16A/|	.	16c/|	.	.	.	.	.	.	.	.	.	.	.	.	.	.	.
.	.	.	16A/JJ|	.	16c/JJ|	.	.	.	.	.	.	.	.	.	.	.	.	.	.	.
8F\	.	.	(8.A/L	.	(8.f/L	.	8F\	-ce-	.	8f\	-ce-	8a\	-ce-	8cc\	-ce-	.	.	.	.	.
8F\J	.	.	.	.	.	.	8F\	-at	.	8f\	-at	8a\	-at	8cc\	-at	.	.	.	.	.
.	.	.	16c/Jk)	.	16e-/Jk)	.	.	.	.	.	.	.	.	.	.	.	.	.	.	.
*Xtremolo	*	*	*	*	*	*	*	*	*	*	*	*	*	*	*	*	*	*	*	*
!LO:LB:g=original	!	!	!	!	!	!	!	!	!	!	!	!	!	!	!	!	!	!	!	!
8BB-/L	.	.	(16c/LL	.	(16e-/LL	.	4B-\	e-	.	4f\	e-	4b-\	e-	4dd\	e-	.	.	.	.	.
.	.	.	16B-/)	.	16d/)	.	.	.	.	.	.	.	.	.	.	.	.	.	.	.
8BB-/	.	.	16B-/|	.	16d/|	.	.	.	.	.	.	.	.	.	.	.	.	.	.	.
.	.	.	16B-/JJ|	.	16d/JJ|	.	.	.	.	.	.	.	.	.	.	.	.	.	.	.
8BB-/J	.	.	(16A/LL	.	(16c#X/LL	.	8BB-/	-is	.	8f\	-is	8b-\	-is	8dd\	-is	.	.	.	.	.
.	.	.	16B-/)	.	16d/)	.	.	.	.	.	.	.	.	.	.	.	.	.	.	.
8r	.	.	(16c/	.	(16e-/	.	8r	.	.	8r	.	8r	.	8r	.	.	.	.	.	.
.	.	.	16d/JJ)	.	16f/JJ)	.	.	.	.	.	.	.	.	.	.	.	.	.	.	.
!	!	!	!LO:LB:g=original	!	!	!	!	!	!	!	!	!	!	!	!	!	!	!	!	!
=11	=11	=11	=11	=11	=11	=11	=11	=11	=11	=11	=11	=11	=11	=11	=11	=11	=11	=11	=11	=11
.	.	.	.	.	16qqf#X/	.	.	.	.	.	.	.	.	.	.	.	.	.	.	.
!	!	!LO:DY:a	!	!LO:DY:a:t=for	!	!LO:DY:a:t=for	!	!	!	!	!LO:MO:mod=et	!	!	!	!LO:MO:mod=et	!	!	!	!	!
16B-\LL	6_ 4_	f	4e-/	f	4g/	f	4B-\	et	.	4B-\	(et)	4g\	et	4ee-\	Et	8B-/L	8B-/L	2ee-\	.	2gg\
16B-\	.	.	.	.	.	.	.	.	.	.	.	.	.	.	.	.	.	.	.	.
16B-\	.	.	.	.	.	.	.	.	.	.	.	.	.	.	.	16B-/L	16B-/L	.	.	.
16B-\JJ	.	.	.	.	.	.	.	.	.	.	.	.	.	.	.	16B-/JJ	16B-/JJ	.	.	.
*tremolo	*	*	*	*	*	*	*	*	*	*	*	*	*	*	*	*	*	*	*	*
!	!	!	!	!	!	!	!	!	!	!	!	!	!	!	!	!LO:LB:g=original	!	!	!	!
16B-\LL	.	.	16e-/LL	.	16g/LL	.	8B-\	lux	.	8B-\	lux	8g\	lux	8ee-\	lux	8B-/	8B-/	.	.	.
16B-\	.	.	32f/L	.	32an/L	.	.	.	.	.	.	.	.	.	.	.	.	.	.	.
.	.	.	32g/JJJ	.	32b-/JJJ	.	.	.	.	.	.	.	.	.	.	.	.	.	.	.
16B-\	.	.	32a-/LLL	.	32cc/LLL	.	8B-\	per-	.	8B-\	per-	8g\	per-	8ee-\	per-	8r	8r	.	.	.
.	.	.	32g/	.	32b-/	.	.	.	.	.	.	.	.	.	.	.	.	.	.	.
16B-\JJ	.	.	32f/	.	32a/	.	.	.	.	.	.	.	.	.	.	.	.	.	.	.
.	.	.	32e-/JJJ	.	32g/JJJ	.	.	.	.	.	.	.	.	.	.	.	.	.	.	.
!	!	!	!LO:SIC:o=16e-/LL	!	!	!	!	!	!	!	!	!	!	!	!	!	!	!	!	!
16B-\LL	5_ 3_	.	(16e-LL	.	(16g/LL	.	8.B-\	-pe-	.	8.B-\	-pe-	8.f\	-pe-	8.dd\	-pe-	8B-/L	8B-/L	2dd\	.	2ff\
!	!	!	!LO:SIC:o=16d/J	!	!	!	!	!	!	!	!	!	!	!	!	!	!	!	!	!
16B-\	.	.	16dJ)	.	16fny/J)	.	.	.	.	.	.	.	.	.	.	.	.	.	.	.
!	!	!	!	!	!LO:MO:mod=8fJ	!	!	!	!	!	!	!	!	!	!	!	!	!	!	!
16B-\	.	.	8d/J	.	8.f/J	.	.	.	.	.	.	.	.	.	.	16B-/L	16B-/L	.	.	.
16B-\JJ	.	.	.	.	.	.	16B-\	-tu-	.	16B-\	-tu-	16f\	-tu-	16dd\	-tu-	16B-/JJ	16B-/JJ	.	.	.
!	!	!	!	!	!LO:MO:null:mod=16fLL	!	!	!	!	!	!	!	!	!	!	!	!	!	!	!
16B-\LL	.	.	16d/LL	.	.	.	4B-\	-a	.	4B-\	-a	4f\	-a	4dd\	-a	8B-/	8B-/	.	.	.
!	!	!	!	!	!LO:LB:g=original	!	!	!	!	!	!	!	!	!	!	!	!	!	!	!
!	!	!	!	!	!LO:MO:mod=32e-L	!	!	!	!	!	!	!	!	!	!	!	!	!	!	!
16B-\	.	.	32c/L	.	32e-/LLL	.	.	.	.	.	.	.	.	.	.	.	.	.	.	.
.	.	.	32d/JJJ	.	32f/JJJ	.	.	.	.	.	.	.	.	.	.	.	.	.	.	.
16B-\	.	.	32g/LLL	.	32b-/LLL	.	.	.	.	.	.	.	.	.	.	8r	8r	.	.	.
.	.	.	32f/	.	32an/	.	.	.	.	.	.	.	.	.	.	.	.	.	.	.
16B-\JJ	.	.	32e-/	.	32g/	.	.	.	.	.	.	.	.	.	.	.	.	.	.	.
.	.	.	32d/JJJ	.	32f/JJJ	.	.	.	.	.	.	.	.	.	.	.	.	.	.	.
*Xtremolo	*	*	*	*	*	*	*	*	*	*	*	*	*	*	*	*	*	*	*	*
!	!	!	!	!	!	!	!	!	!	!	!	!LO:LB:g=original	!	!	!	!	!	!	!	!
=12	=12	=12	=12	=12	=12	=12	=12	=12	=12	=12	=12	=12	=12	=12	=12	=12	=12	=12	=12	=12
!	!	!	!	!	!	!	!LO:SIC:v:o=4A-\	!	!	!	!	!	!	!	!	!	!	!	!	!
16An\LL	6_ 5_	.	16d/LL	.	16f/LL	.	4An\	lu-	.	4c\	lu-	4f\	lu-	4ee-\	lu-	8r	8r	4cc\	.	4.ee-\
16A\	.	.	16c/JJ	.	16e-/JJ	.	.	.	.	.	.	.	.	.	.	.	.	.	.	.
16A\	.	.	4c/	.	4e-/	.	.	.	.	.	.	.	.	.	.	16f\LL	16f\LL	.	.	.
16A\JJ	.	.	.	.	.	.	.	.	.	.	.	.	.	.	.	16f\JJ	16f\JJ	.	.	.
*tremolo	*	*	*	*	*	*	*	*	*	*	*	*	*	*	*	*	*	*	*	*
16B-\LL	x	.	.	.	.	.	8B-\	-ce-	.	8B-\	-ce-	8f\	-ce-	8dd\	-ce-	8B-/L	8f\L	4b-\	.	.
16B-\	.	.	.	.	.	.	.	.	.	.	.	.	.	.	.	.	.	.	.	.
16B-\	.	.	8B-/	.	8d/	.	8B-\	-at	.	8B-\	-at	8b-\	-at	8ff\	-at	8B-/J	8f\J	.	.	8dd\
16B-\JJ	.	.	.	.	.	.	.	.	.	.	.	.	.	.	.	.	.	.	.	.
!	!	!	!	!	!	!	!LO:LB:g=original	!	!	!	!	!	!	!LO:LB:g=original	!	!	!	!	!	!
16E-\LL	6	.	8c/L	.	8e-/L	.	4E-\	e-	.	4g\	e-	4cc\	e-	4ee-\	e-	4e-\	4g\	4cc\	.	4ee-\
16E-\	.	.	.	.	.	.	.	.	.	.	.	.	.	.	.	.	.	.	.	.
!	!	!	!LO:TUP:b:problem=klamra łukowa	!	!LO:TUP:b:problem=klamra łukowa	!	!	!	!	!	!	!	!	!	!	!	!	!	!	!
16E-\	.	.	24e-/L	.	24g/L	.	.	.	.	.	.	.	.	.	.	.	.	.	.	.
.	.	.	24d/	.	24f/	.	.	.	.	.	.	.	.	.	.	.	.	.	.	.
16E-\JJ	.	.	.	.	.	.	.	.	.	.	.	.	.	.	.	.	.	.	.	.
.	.	.	24c/JJ	.	24e-/JJ	.	.	.	.	.	.	.	.	.	.	.	.	.	.	.
*Xtremolo	*	*	*	*	*	*	*	*	*	*	*	*	*	*	*	*	*	*	*	*
!LO:TX:t=P:problem=mixed beam	!	!	!	!	!	!	!	!	!	!	!	!	!	!	!	!	!	!	!	!
16F\LL	4	.	8B-/L	.	8d/L	.	4F\	.	.	4f\	.	8b-\L	.	8dd\L	.	8f\L	8f\L	8b-\L	.	8dd\L
16F\	.	.	.	.	.	.	.	.	.	.	.	.	.	.	.	.	.	.	.	.
!	!	!	!LO:SIC:v:o=8A-/J	!	!	!	!	!	!	!	!	!	!	!	!	!	!	!	!	!
16FF/	n	.	8An/J	.	8c/J	.	.	.	.	.	.	8an\J	.	8cc\J	.	8f\J	8f\J	8a\J	.	8cc\J
16FF/JJ	.	.	.	.	.	.	.	.	.	.	.	.	.	.	.	.	.	.	.	.
=13	=13	=13	=13	=13	=13	=13	=13	=13	=13	=13	=13	=13	=13	=13	=13	=13	=13	=13	=13	=13
!LO:TX:a:i:t=S.:rj	!	!	!	!LO:DY:a	!	!LO:DY:a	!	!	!	!	!	!	!	!	!	!	!	!LO:TX:a:i:t=Solo	!	!LO:TX:a:i:t=Solo
4BB-/	.	p	(16B-/LL	p	(16d/LL	p	4BB-/	-is	.	4f\	-is	4b-\	-is	4dd\	-is	4B-/	4f\	8b-\	.	8dd\
.	.	.	16d/)	.	16f/)	.	.	.	.	.	.	.	.	.	.	.	.	.	.	.
.	.	.	16d/|	.	16f/|	.	.	.	.	.	.	.	.	.	.	.	.	16r	.	16r
.	.	.	16d/JJ|	.	16f/JJ|	.	.	.	.	.	.	.	.	.	.	.	.	16dd|\	.	16ff\|
4r	.	.	(16d/LL	.	(16f/LL	.	4r	.	.	4r	.	4r	.	4r	.	4r	4r	(8.dd\L	.	(8.ff\L
.	.	.	16e-/)	.	16g/)	.	.	.	.	.	.	.	.	.	.	.	.	.	.	.
.	.	.	(16d/	.	(16f/	.	.	.	.	.	.	.	.	.	.	.	.	.	.	.
.	.	.	16c/JJ)	.	16e-/JJ)	.	.	.	.	.	.	.	.	.	.	.	.	16cc\Jk)	.	16ee-\Jk)
4F\	n	.	(16B-/LL	.	(16d/LL	.	2r	.	.	2r	.	2r	.	2r	.	2r	2r	8r	.	8r
.	.	.	16An/)	.	16c/)	.	.	.	.	.	.	.	.	.	.	.	.	.	.	.
.	.	.	16A/|	.	16c/|	.	.	.	.	.	.	.	.	.	.	.	.	16r	.	16r
.	.	.	16A/JJ|	.	16c/JJ|	.	.	.	.	.	.	.	.	.	.	.	.	16cc\|	.	16ee-\|
4r	.	.	(16A/LL	.	(16c/LL	.	.	.	.	.	.	.	.	.	.	.	.	(8.cc\L	.	(8.ee-\L
.	.	.	16B-/)	.	16d/)	.	.	.	.	.	.	.	.	.	.	.	.	.	.	.
.	.	.	(16c/	.	(16e-/	.	.	.	.	.	.	.	.	.	.	.	.	.	.	.
.	.	.	16d/JJ)	.	16f/JJ)	.	.	.	.	.	.	.	.	.	.	.	.	16b-\Jk)	.	16dd\Jk)
!	!	!	!LO:LB:g=original	!	!	!	!	!	!	!	!	!	!	!	!	!	!	!	!	!
=14	=14	=14	=14	=14	=14	=14	=14	=14	=14	=14	=14	=14	=14	=14	=14	=14	=14	=14	=14	=14
!	!	!	!	!	!	!	!	!	!	!LO:TX:a:t=14:mod=	!	!	!	!	!	!	!	!	!	!
4BB-/	.	.	(16c/LL	.	(16e-/LL	.	00r	.	.	00r	.	1r	.	1r	.	2r	2r	8r	.	8r
.	.	.	16B-/)	.	16d/)	.	.	.	.	.	.	.	.	.	.	.	.	.	.	.
.	.	.	16B-/|	.	16d/|	.	.	.	.	.	.	.	.	.	.	.	.	16r	.	16r
.	.	.	16B-/JJ|	.	16d/JJ|	.	.	.	.	.	.	.	.	.	.	.	.	16dd\|	.	16ff\|
4r	.	.	(16B-/LL	.	(16d/LL	.	.	.	.	.	.	.	.	.	.	.	.	(8.dd\L	.	(8.bb-\L
.	.	.	16c/)	.	16e-/)	.	.	.	.	.	.	.	.	.	.	.	.	.	.	.
.	.	.	(16d/	.	(16f/	.	.	.	.	.	.	.	.	.	.	.	.	.	.	.
.	.	.	16B-/JJ)	.	16d/JJ)	.	.	.	.	.	.	.	.	.	.	.	.	16ff\Jk)	.	16aa-X\Jk)
!	!	!	!LO:MO:mod=(16cLL	!	!	!	!	!	!	!	!	!	!	!	!	!	!	!LO:LB:g=original	!	!
8r	.	.	(8c/L	.	(16e-/LL	.	.	.	.	.	.	.	.	.	.	8r	8r	8ee-\L	.	8gg\L
!	!	!	!LO:MO:null:mod=16e-)	!	!	!	!	!	!	!	!	!	!	!	!	!	!	!	!	!
.	.	.	.	.	16g/)	.	.	.	.	.	.	.	.	.	.	.	.	.	.	.
!LO:TX:t=P:problem=mixed beam	!	!	!LO:MO:mod=(16d-	!	!	!	!	!	!	!	!	!	!	!	!	!	!	!	!	!
8E-\L	6	.	24e-/L)	.	(16f/	.	.	.	.	.	.	.	.	.	.	8e-\L	8g\L	16dd\L	.	16ff\L
!	!	!	!LO:MO:mod=.	!	!	!	!	!	!	!	!	!	!	!	!	!	!	!	!	!
.	.	.	24d/	.	.	.	.	.	.	.	.	.	.	.	.	.	.	.	.	.
!	!	!	!LO:MO:null:mod=16cJJ)	!	!	!	!	!	!	!	!	!	!	!	!	!	!	!	!	!
.	.	.	.	.	16e-/JJ)	.	.	.	.	.	.	.	.	.	.	.	.	16cc\JJ	.	16ee-\JJ
!	!	!	!LO:MO:mod=.	!	!	!	!	!	!	!	!	!	!	!	!	!	!	!	!	!
.	.	.	24c/JJ	.	.	.	.	.	.	.	.	.	.	.	.	.	.	.	.	.
8F\	4	.	8B-/L	.	8d/L	.	.	.	.	.	.	.	.	.	.	8f\	8f\	8b-\L	.	8dd\L
8FF/J	n	.	8An/J	.	8c/J	.	.	.	.	.	.	.	.	.	.	8f\J	8f\J	8a\J	.	8cc\J
!	!	!	!	!	!LO:LB:g=original	!	!	!	!	!	!	!	!	!	!	!	!	!	!	!
=15	=15	=15	=15	=15	=15	=15	=15	=15	=15	=15	=15	=15	=15	=15	=15	=15	=15	=15	=15	=15
!LO:TX:t=P:problem=mixed beam	!	!	!	!	!	!	!	!	!	!	!	!LO:TX:a:i:t=Solo	!	!LO:TX:a:i:t=Solo	!	!	!	!	!	!
8BB-/L	.	.	4B-/	.	4d/	.	.	.	.	.	.	8r	.	8r	.	4B-/	4f\	8b-\L	.	8dd\L
8BB-/	.	.	.	.	.	.	.	.	.	.	.	8dd\	Te	8ff\	Te	.	.	8dd\J	.	8ff\J
8B-\	.	.	4r	.	4r	.	.	.	.	.	.	16dd\LL	de-	16ff\LL	de-	4r	4r	(16dd\LL	.	(16ff\LL
.	.	.	.	.	.	.	.	.	.	.	.	16cc\JJ	.	16ee-\JJ	.	.	.	16cc\)	.	16ee-\)
8BB-/J	.	.	.	.	.	.	.	.	.	.	.	16cc\LL	-cet	16ee-\LL	-cet	.	.	(16cc\	.	(16ee-\
.	.	.	.	.	.	.	.	.	.	.	.	16b-\JJ	.	16dd\JJ	.	.	.	16b-\JJ)	.	16dd\JJ)
!LO:TX:t=P:problem=mixed beam	!	!	!	!	!	!	!	!	!	!	!	!	!	!	!	!	!	!	!	!LO:LB:g=original
8F\L	n	.	16r	.	16r	.	.	.	.	.	.	16b-\LL	hy-	16dd\LL	hy-	2r	2r	(16b-\LL	.	(16dd\LL
.	.	.	16An/LL	.	16c/LL	.	.	.	.	.	.	16an\JJ	.	16cc\JJ	.	.	.	16a\J)	.	16cc\J)
!	!	!	!	!	!LO:SIC:o=(16d/	!	!	!	!	!	!	!	!	!	!	!	!	!	!	!
8FF/J	.	.	16B-/	.	16d	.	.	.	.	.	.	8a\	-mnus	8cc\	-mnus	.	.	8a|\J	.	8cc|\J
!	!	!	!	!	!LO:SIC:o=16e-/JJ)	!	!	!	!	!	!	!	!	!	!	!	!	!	!	!
.	.	.	16c/JJ	.	16e-JJ	.	.	.	.	.	.	.	.	.	.	.	.	.	.	.
4r	.	.	16c/LL	.	16e-/LL	.	.	.	.	.	.	4r	.	4r	.	.	.	4r	.	4r
.	.	.	16B-/	.	16d/	.	.	.	.	.	.	.	.	.	.	.	.	.	.	.
.	.	.	16A/	.	16c/	.	.	.	.	.	.	.	.	.	.	.	.	.	.	.
.	.	.	16B-/JJ	.	16d/JJ	.	.	.	.	.	.	.	.	.	.	.	.	.	.	.
!LO:LB:g=original	!	!	!	!	!	!	!	!	!	!	!	!	!	!	!	!	!	!	!	!
=16	=16	=16	=16	=16	=16	=16	=16	=16	=16	=16	=16	=16	=16	=16	=16	=16	=16	=16	=16	=16
8r	.	.	4An/	.	4c/	.	.	.	.	.	.	8.an\L	De-	8.cc\L	De-	00r	00r	(8.a\L	.	(8.cc\L
!LO:TX:t=P:problem=mixed beam	!	!	!	!	!	!	!	!	!	!	!	!	!	!	!	!	!	!	!	!
8F\L	n	.	.	.	.	.	.	.	.	.	.	.	.	.	.	.	.	.	.	.
.	.	.	.	.	.	.	.	.	.	.	.	32b-\LL	.	32dd\LL	.	.	.	32b-\LL	.	32dd\LL
.	.	.	.	.	.	.	.	.	.	.	.	32cc\JJJ	.	32ee-\JJJ	.	.	.	32cc\JJJ)	.	32ee-\JJJ)
8FF/	.	.	4r	.	4r	.	.	.	.	.	.	8dd\	-us	8ff\	-us	.	.	8dd|\L	.	8ff|\L
8F\J	.	.	.	.	.	.	.	.	.	.	.	8cc\	in	8ee-\	in	.	.	8cc|\J	.	8ee-|\J
!LO:TX:t=P:problem=mixed beam	!	!	!	!	!	!	!	!	!	!	!	!	!LO:MO:mod=Si-	!	!	!	!	!LO:SIC:o=16cc\LL	!	!
8B-\L	.	.	16r	.	16r	.	.	.	.	.	.	16cc\LL	si-	16ee-\LL	Si-	.	.	(16ccLL	.	(16ee-\LL
!	!	!	!	!	!	!	!	!	!	!	!	!	!	!	!	!	!	!LO:SIC:o=16b-\J	!	!
.	.	.	16B-/LL	.	16d/LL	.	.	.	.	.	.	16b-\JJ	.	16dd\JJ	.	.	.	16b-J)	.	16dd\J)
!	!	!	!	!	!	!	!	!	!	!	!	!	!	!	!	!	!	!LO:SIC:o=8b-\J	!	!
8BB-/J	.	.	16c/	.	16e-/	.	.	.	.	.	.	8b-\	-on	8dd\	-on	.	.	8b-J|	.	8dd|\J
.	.	.	16d/JJ	.	16f/JJ	.	.	.	.	.	.	.	.	.	.	.	.	.	.	.
4r	.	.	16d/LL	.	16f/LL	.	.	.	.	.	.	4r	.	4r	.	.	.	4r	.	4r
.	.	.	16c/	.	16e-/	.	.	.	.	.	.	.	.	.	.	.	.	.	.	.
.	.	.	16B-/	.	16d/	.	.	.	.	.	.	.	.	.	.	.	.	.	.	.
.	.	.	16c/JJ	.	16e-/JJ	.	.	.	.	.	.	.	.	.	.	.	.	.	.	.
!	!	!	!	!	!	!	!	!	!	!	!	!LO:LB:g=original	!	!	!	!	!	!	!	!
=17	=17	=17	=17	=17	=17	=17	=17	=17	=17	=17	=17	=17	=17	=17	=17	=17	=17	=17	=17	=17
!	!	!	!	!	!	!	!	!	!	!	!	!	!	!	!	!	!	!	!	!LO:SIC:o=8.dd\L
8r	.	.	4B-/	.	4d/	.	.	.	.	.	.	8.b-\L	Te	8.dd\L	Te	.	.	(8.b-\L	.	(8.ddL
!LO:TX:t=P:problem=mixed beam	!	!	!	!	!	!	!	!	!	!	!	!	!	!	!	!	!	!	!	!
8B-\L	.	.	.	.	.	.	.	.	.	.	.	.	.	.	.	.	.	.	.	.
.	.	.	.	.	.	.	.	.	.	.	.	32cc\LL	.	32ee-\LL	.	.	.	32cc\LL	.	32ee-\LL
!	!	!	!	!	!	!	!	!	!	!	!	!	!	!	!	!	!	!	!	!LO:SIC:o=32ff\JJJ
.	.	.	.	.	.	.	.	.	.	.	.	32dd\JJJ	.	32ff\JJJ	.	.	.	32dd\JJJ)	.	32ffJJJ)
!	!	!	!	!	!	!	!	!	!	!	!	!	!	!LO:LB:g=original	!	!	!	!	!	!LO:SIC:o=16gg\LL
8BB-/	.	.	8r	.	8r	.	.	.	.	.	.	16ee-\LL	de-	16gg\LL	de-	.	.	(16ee-\LL	.	(16ggLL
!	!	!	!	!	!	!	!	!	!	!	!	!	!	!	!	!	!	!	!	!LO:SIC:o=16ff\
.	.	.	.	.	.	.	.	.	.	.	.	16dd\JJ	.	16ff\JJ	.	.	.	16dd\)	.	16ff)
!	!	!	!	!	!	!	!	!	!	!	!	!	!	!	!	!	!	!	!	!LO:SIC:o=16ee-\
8B-\J	.	.	8B-/	.	8d/	.	.	.	.	.	.	16cc\LL	-cet	16ee-\LL	-cet	.	.	(16cc\	.	(16ee-
!	!	!	!	!	!	!	!	!	!	!	!	!	!	!	!	!	!	!	!	!LO:SIC:o=16dd\JJ
.	.	.	.	.	.	.	.	.	.	.	.	16b-\JJ	.	16dd\JJ	.	.	.	16b-\JJ)	.	16ddJJ)
8F\L	n_	.	(8.An/L	.	(8.c/L	.	.	.	.	.	.	8.an\L	hy-	8.cc\L	hy-	.	.	(8.a\L	.	(8.cc\L
16F\L	.	.	.	.	.	.	.	.	.	.	.	.	.	.	.	.	.	.	.	.
16En\JJ	.	.	16B-/Jk)	.	16d/K)	.	.	.	.	.	.	16b-\Jk	.	16dd\Jk	.	.	.	16b-\Jk)	.	16dd\Jk)
!LO:TX:t=P:problem=mixed beam	!	!	!	!	!	!	!	!	!	!	!	!	!	!	!	!	!	!	!	!
8F\L	x	.	8c/L|	.	8e-/|	.	.	.	.	.	.	16dd\LL	-mnus	16ff\LL	-mnus	.	.	(16dd\LL	.	(16ff\LL
.	.	.	.	.	.	.	.	.	.	.	.	16cc\JJ	.	16ee-\JJ	.	.	.	16cc\)	.	16ee-\)
!	!	!	!	!	!	!	!	!	!	!	!	!LO:SIC:o=16b-\LL	!	!LO:SIC:o=16dd\LL	!	!	!	!	!	!
8FF/J	.	.	8c/J|	.	8e-/J|	.	.	.	.	.	.	(16b-LL	De-	(16ddLL	De-	.	.	(16b-\	.	(16dd\
!	!	!	!	!	!	!	!	!	!	!	!	!LO:SIC:o=(16cc\JJ	!	!LO:SIC:o=(16ee-\JJ	!	!	!	!	!	!
.	.	.	.	.	.	.	.	.	.	.	.	16ccJJ	.	16ee-JJ	.	.	.	16cc\JJ)	.	16ee-\JJ)
!	!	!	!LO:LB:g=original	!	!	!	!	!	!	!	!	!	!	!	!	!	!	!LO:LB:g=original	!	!
=18	=18	=18	=18	=18	=18	=18	=18	=18	=18	=18	=18	=18	=18	=18	=18	=18	=18	=18	=18	=18
!LO:TX:t=P:problem=mixed beam	!	!	!	!	!	!	!	!	!	!	!	!	!	!	!	!	!	!	!	!
8BB-/L	.	.	(8.d/L	.	(8.f/L	.	00r	.	.	00r	.	4dd\)	.	4ff\)	.	.	.	(8.dd\L	.	(8.ff\L
8B-\J	.	.	.	.	.	.	.	.	.	.	.	.	.	.	.	.	.	.	.	.
.	.	.	32e-/LL	.	32g/LL	.	.	.	.	.	.	.	.	.	.	.	.	32ee-\LL	.	32gg\LL
.	.	.	32d/JJJ)	.	32f/JJJ)	.	.	.	.	.	.	.	.	.	.	.	.	32dd\JJJ)	.	32ff\JJJ)
8E-\L	6	.	8c/L|	.	8e-/L|	.	.	.	.	.	.	8cc\	-us	8ee-\	-us	.	.	8cc|\L	.	8ee-|\L
8En\J	5	.	8B-/J|	.	8d/J|	.	.	.	.	.	.	8b-\	in	8dd\	in	.	.	8b-|\J	.	8dd|\J
!LO:TX:t=P:problem=mixed beam	!	!	!	!	!	!	!	!	!	!	!	!	!	!	!	!	!	!	!	!
8F\L	4	.	8B-/L	.	8d/L	.	.	.	.	.	.	8b-\	Si-	8dd\	Si-	.	.	8b-\L	.	8dd\L
8FF/	n_	.	8An/	.	8c/	.	.	.	.	.	.	8an\	-on	8cc\	-on	.	.	8a\J	.	8cc\J
8F\J	.	.	8A/J	.	8c/J	.	.	.	.	.	.	8r	.	8r	.	.	.	8r	.	8r
8r	x	.	8r	.	8r	.	.	.	.	.	.	8a\	et	8cc\	et	.	.	8a\	.	8cc\
=19	=19	=19	=19	=19	=19	=19	=19	=19	=19	=19	=19	=19	=19	=19	=19	=19	=19	=19	=19	=19
!	!	!	!	!	!	!	!	!	!	!	!	!	!	!	!	!	!	!LO:SIC:o=16b-\LL	!	!
8r	.	.	8r	.	8r	.	.	.	.	.	.	16b-\LL	ti-	16dd\LL	ti-	.	.	(16b-LL	.	(16dd\LL
!	!	!	!	!	!	!	!	!	!	!	!	!	!	!	!	!	!	!LO:SIC:o=16dd\J	!	!
.	.	.	.	.	.	.	.	.	.	.	.	16dd\JJ	.	16ff\JJ	.	.	.	16ddJ)	.	16ff\J)
!	!	!	!	!	!	!	!	!	!	!	!	!	!	!	!	!	!	!LO:SIC:o=8dd\J	!	!
8B-\L	.	.	8B-/L	.	8d/L	.	.	.	.	.	.	8dd\	-bi	8ff\	-bi	.	.	8ddJ|	.	8ff|\J
!	!	!	!	!	!	!	!	!	!	!	!	!	!	!	!	!	!	!	!	!LO:LB:g=original
8B-\	.	.	8B-/	.	8d/	.	.	.	.	.	.	16r	.	16r	.	.	.	16r	.	16r
.	.	.	.	.	.	.	.	.	.	.	.	16dd\LL	red-	16ff\LL	red-	.	.	16dd\LL	.	16ff\LL
8B-\J	.	.	8B-/J	.	8d/J	.	.	.	.	.	.	16ee-\	.	16gg\	.	.	.	16ee-\	.	16gg\
.	.	.	.	.	.	.	.	.	.	.	.	16dd\JJ	.	16ff\JJ	.	.	.	16dd\JJ	.	16ff\JJ
8r	.	.	8r	.	8r	.	.	.	.	.	.	16cc\LL	-de-	16ee-\LL	-de-	.	.	16cc\LL	.	16ee-\LL
.	.	.	.	.	.	.	.	.	.	.	.	16b-\JJ	.	16dd\JJ	.	.	.	16b-\J	.	16dd\J
8B-\L	.	.	8B-/L	.	8d/L	.	.	.	.	.	.	8b-\	-tur	8dd\	-tur	.	.	8b-\J	.	8dd\J
8B-\	.	.	8B-/	.	8d/	.	.	.	.	.	.	8r	.	8r	.	.	.	8r	.	8r
8B-\J	.	.	8B-/J	.	8d/J	.	.	.	.	.	.	8b-\	et	8dd\	et	.	.	8b-\	.	8dd\
!	!	!	!	!	!LO:LB:g=original	!	!	!	!	!	!	!LO:LB:g=original	!	!	!	!	!	!	!	!
=20	=20	=20	=20	=20	=20	=20	=20	=20	=20	=20	=20	=20	=20	=20	=20	=20	=20	=20	=20	=20
8r	.	.	8r	.	8r	.	.	.	.	.	.	16an\LL	ti-	16cc\LL	ti-	00r	00r	16a\LL	.	16cc\LL
.	.	.	.	.	.	.	.	.	.	.	.	16cc\JJ	.	16ee-\JJ	.	.	.	16cc\J	.	16ee-\J
8F\L	n	.	8An/L	.	8c/L	.	.	.	.	.	.	8cc\	-bi	8ee-\	-bi	.	.	8cc\J	.	8ee-\J
!	!	!	!	!	!	!	!	!	!	!	!	!	!	!LO:LB:g=original	!	!	!	!	!	!
8F\	.	.	8A/	.	8c/	.	.	.	.	.	.	16r	.	16r	.	.	.	16r	.	16r
.	.	.	.	.	.	.	.	.	.	.	.	16cc\LL	red-	16ee-\LL	red-	.	.	16cc\LL	.	16ee-\LL
8F\J	.	.	8A/J	.	8c/J	.	.	.	.	.	.	16dd\	.	16ff\	.	.	.	16dd\	.	16ff\
.	.	.	.	.	.	.	.	.	.	.	.	16cc\JJ	.	16ee-\JJ	.	.	.	16cc\JJ	.	16ee-\JJ
8r	.	.	8r	.	8r	.	.	.	.	.	.	16b-\LL	-de-	16dd\LL	-de-	.	.	16b-\LL	.	16dd\LL
.	.	.	.	.	.	.	.	.	.	.	.	16a\JJ	.	16cc\JJ	.	.	.	16a\J	.	16cc\J
8F\L	.	.	8A/L	.	8c/L	.	.	.	.	.	.	8a\	-tur	8cc\	-tur	.	.	8a\J	.	8cc\J
8F\	.	.	8A/	.	8c/	.	.	.	.	.	.	8r	.	8r	.	.	.	8r	.	8r
8F\J	.	.	8A/J	.	8c/J	.	.	.	.	.	.	8a\	et	8cc\	et	.	.	8a\	.	8cc\
!LO:LB:g=original	!	!	!	!	!	!	!	!	!	!	!	!	!	!	!	!	!	!	!	!
=21	=21	=21	=21	=21	=21	=21	=21	=21	=21	=21	=21	=21	=21	=21	=21	=21	=21	=21	=21	=21
!	!	!	!	!	!	!	!	!	!	!	!	!	!	!	!	!	!	!LO:SIC:o=8.b-\L	!	!
8BB-/	.	.	(16B-/LL	.	(16d/LL	.	.	.	.	.	.	8.b-\L	ti-	8.dd\L	ti-	.	.	(8.b-L	.	(8.dd\L
.	.	.	16d/)	.	16f/)	.	.	.	.	.	.	.	.	.	.	.	.	.	.	.
8r	.	.	(16B-/	.	(16d/	.	.	.	.	.	.	.	.	.	.	.	.	.	.	.
!	!	!	!	!	!	!	!	!	!	!	!	!	!	!	!	!	!	!LO:SIC:o=16cc\K	!	!
.	.	.	16d/JJ)	.	16f/JJ)	.	.	.	.	.	.	16cc\Jk	.	16ee-\Jk	.	.	.	16ccK)	.	16ee-\K)
!	!	!	!	!	!	!	!	!	!	!	!	!	!	!	!	!	!	!LO:SIC:o=8dd\	!	!
8BB-/	.	.	(16B-/LL	.	(16d/LL	.	.	.	.	.	.	8dd\	-bi	8ff\	-bi	.	.	8dd|	.	8ff|\
.	.	.	16d/)	.	16f/)	.	.	.	.	.	.	.	.	.	.	.	.	.	.	.
!	!	!	!	!	!	!	!	!	!	!	!	!	!	!	!	!	!	!LO:SIC:o=8dd\J	!	!
8r	.	.	(16B-/	.	(16d/	.	.	.	.	.	.	8dd\	red-	8ff\	red-	.	.	8ddJ|	.	8ff|\J
.	.	.	16d/JJ)	.	16f/JJ)	.	.	.	.	.	.	.	.	.	.	.	.	.	.	.
!	!	!	!	!	!	!	!	!	!	!	!	!	!	!	!	!	!	!LO:LB:g=original	!	!
8BB-/	6 4	.	(16G/LL	.	(16e-/LL	.	.	.	.	.	.	4ee-\	-de-	4gg\	-de-	.	.	4ee-\	.	4gg\
.	.	.	16e-/)	.	16g/)	.	.	.	.	.	.	.	.	.	.	.	.	.	.	.
8r	.	.	(16G/	.	(16e-/	.	.	.	.	.	.	.	.	.	.	.	.	.	.	.
.	.	.	16e-/JJ)	.	16g/JJ)	.	.	.	.	.	.	.	.	.	.	.	.	.	.	.
8BB-/	5 3	.	(16B-/LL	.	(16d/LL	.	.	.	.	.	.	4dd\	-tur	4ff\	-tur	.	.	4dd\	.	4ff\
.	.	.	16d/)	.	16f/)	.	.	.	.	.	.	.	.	.	.	.	.	.	.	.
8r	.	.	(16B-/	.	(16d/	.	.	.	.	.	.	.	.	.	.	.	.	.	.	.
.	.	.	16d/JJ)	.	16f/JJ)	.	.	.	.	.	.	.	.	.	.	.	.	.	.	.
!	!	!	!LO:LB:g=original	!	!	!	!	!	!	!	!	!	!	!	!	!	!	!	!	!
=22	=22	=22	=22	=22	=22	=22	=22	=22	=22	=22	=22	=22	=22	=22	=22	=22	=22	=22	=22	=22
!	!	!	!	!	!	!	!	!	!	!	!	!	!LO:MO:mod=vo-	!	!	!	!	!LO:SIC:o=8.cc\L	!	!
8F\	n	.	(16An/LL	.	(16c/LL	.	1r	.	.	00r	.	4cc\	Vo-	4ee-\	vo-	.	.	(8.ccL	.	(8.ee-\L
.	.	.	16c/)	.	16e-/)	.	.	.	.	.	.	.	.	.	.	.	.	.	.	.
8r	.	.	(16A/	.	(16c/	.	.	.	.	.	.	.	.	.	.	.	.	.	.	.
.	.	.	16c/JJ)	.	16e-/JJ)	.	.	.	.	.	.	.	.	.	.	.	.	32dd\LL	.	32ff\LL
!	!	!	!	!	!	!	!	!	!	!	!	!	!	!	!	!	!	!LO:SIC:o=32cc\JJJ	!	!
.	.	.	.	.	.	.	.	.	.	.	.	.	.	.	.	.	.	32ccJJJ)	.	32ee-\JJJ)
!	!	!	!	!	!	!	!	!	!	!	!	!	!	!	!	!	!	!LO:SIC:o=8b-\L	!	!
8B-\	.	.	(16B-/LL	.	(16d/LL	.	.	.	.	.	.	4b-\	-tum	4dd\	-tum	.	.	8b-L|	.	8dd|\L
.	.	.	16d/)	.	16f/)	.	.	.	.	.	.	.	.	.	.	.	.	.	.	.
!	!	!	!	!	!	!	!	!	!	!	!	!	!	!	!	!	!	!LO:SIC:o=8dd\J	!	!
8r	.	.	(16B-/	.	(16d/	.	.	.	.	.	.	.	.	.	.	.	.	8ddJ|	.	8ff|\J
.	.	.	16d/JJ)	.	16f/JJ)	.	.	.	.	.	.	.	.	.	.	.	.	.	.	.
!LO:TX:t=P:problem=mixed beam	!	!	!	!	!LO:SIC:o=16e-/LL	!	!	!	!	!	!	!	!	!	!	!	!	!	!	!
8E-\L	6	.	(16c/LL	.	(16e-LL	.	.	.	.	.	.	8cc\	in	8ee-\	in	.	.	16cc\LL	.	16ee-\LL
!	!	!	!	!	!LO:SIC:o=16g/	!	!	!	!	!	!	!	!	!	!	!	!	!	!	!
.	.	.	16e-/)	.	16g)	.	.	.	.	.	.	.	.	.	.	.	.	16ee-\	.	16gg\
8E-\	.	.	(16d/	.	(16f/	.	.	.	.	.	.	8cc\	Je-	8ee-\	Je-	.	.	16dd\	.	16ff\
.	.	.	16c/JJ)	.	16e-/JJ)	.	.	.	.	.	.	.	.	.	.	.	.	16cc\JJ	.	16ee-\JJ
8F\	4	.	8B-/L	.	8d/L	.	.	.	.	.	.	8b-\	-ru-	8dd\	-ru-	.	.	8b-\L	.	8dd\L
8FF/J	n	.	8An/J	.	8c/J	.	.	.	.	.	.	8an\	-sa-	8cc\	-sa-	.	.	8a\J	.	8ee-\J
=23	=23	=23	=23	=23	=23	=23	=23	=23	=23	=23	=23	=23	=23	=23	=23	=23	=23	=23	=23	=23
8BB-/	.	.	(16B-/LL	.	(16d/LL	.	4r	.	.	.	.	4b-\	-lem	4dd\	-lem	.	.	4b-\	.	4dd\
.	.	.	16d/)	.	16f/)	.	.	.	.	.	.	.	.	.	.	.	.	.	.	.
8r	.	.	(16B-/	.	(16d/	.	.	.	.	.	.	.	.	.	.	.	.	.	.	.
.	.	.	16d/JJ)	.	16f/JJ)	.	.	.	.	.	.	.	.	.	.	.	.	.	.	.
8BB-/	.	.	(16B-/LL	.	(16d/LL	.	8r	.	.	.	.	4r	.	4r	.	.	.	4r	.	4r
.	.	.	16d/)	.	16f/)	.	.	.	.	.	.	.	.	.	.	.	.	.	.	.
!	!	!	!	!	!	!	!LO:TX:a:i:t=Solo	!	!	!	!	!	!	!	!	!	!	!	!	!
8r	.	.	(16B-/	.	(16d/	.	16r	.	.	.	.	.	.	.	.	.	.	.	.	.
.	.	.	16d/JJ)	.	16f/JJ)	.	16F\	Ex-	.	.	.	.	.	.	.	.	.	.	.	.
*	*	*	*tremolo	*	*	*	*	*	*	*	*	*	*	*	*	*	*	*	*	*
8B-\	3	.	16B-/LL	.	(16d/LL	.	4d\	-au-	.	.	.	2r	.	2r	.	.	.	2r	.	2r
.	.	.	16d/	.	16f/)	.	.	.	.	.	.	.	.	.	.	.	.	.	.	.
8r	.	.	16B-/	.	(16d/	.	.	.	.	.	.	.	.	.	.	.	.	.	.	.
.	.	.	16d/	.	16f/JJ)	.	.	.	.	.	.	.	.	.	.	.	.	.	.	.
8B-\	.	.	16B-/	.	(16d/LL	.	8B-\	-di	.	.	.	.	.	.	.	.	.	.	.	.
.	.	.	16d/	.	16f/)	.	.	.	.	.	.	.	.	.	.	.	.	.	.	.
8r	.	.	16B-/	.	(16d/	.	16r	.	.	.	.	.	.	.	.	.	.	.	.	.
*	*	*	*	*	*	*	*	*ij	*	*	*	*	*	*	*	*	*	*	*	*
!	!	!	!	!	!	!	!	!LO:MO:mod=ex-	!	!	!	!	!	!	!	!	!	!	!	!
.	.	.	16d/JJ	.	16f/JJ)	.	16F\	Ex-	.	.	.	.	.	.	.	.	.	.	.	.
*	*	*	*Xtremolo	*	*	*	*	*	*	*	*	*	*	*	*	*	*	*	*	*
!	!	!	!	!	!LO:LB:g=original	!	!	!	!	!	!	!	!	!	!	!	!	!	!	!LO:LB:g=original
=24	=24	=24	=24	=24	=24	=24	=24	=24	=24	=24	=24	=24	=24	=24	=24	=24	=24	=24	=24	=24
*	*	*	*	*	*tremolo	*	*	*	*	*	*	*	*	*	*	*	*	*	*	*
!	!	!	!	!	!	!	!	!	!	!	!	!LO:TX:b:i:t=Baſ solo:mod=	!	!LO:TX:b:i:t=bas Solo:mod=	!	!	!	!	!	!
8A-X\	.	.	16B-/LL	.	16d/LL	.	4d\	-au-	.	.	.	00r	.	00r	.	00r	00r	00r	.	00r
.	.	.	16d/	.	16f/	.	.	.	.	.	.	.	.	.	.	.	.	.	.	.
8r	.	.	16B-/	.	16d/	.	.	.	.	.	.	.	.	.	.	.	.	.	.	.
.	.	.	16d/JJ	.	16f/	.	.	.	.	.	.	.	.	.	.	.	.	.	.	.
8A-\	.	.	16B-/LL	.	16d/	.	8B-\	-di	.	.	.	.	.	.	.	.	.	.	.	.
*	*	*	*	*	*	*	*	*Xij	*	*	*	*	*	*	*	*	*	*	*	*
.	.	.	16d/	.	16f/	.	.	.	.	.	.	.	.	.	.	.	.	.	.	.
8r	.	.	16B-/	.	16d/	.	16r	.	.	.	.	.	.	.	.	.	.	.	.	.
.	.	.	16d/JJ	.	16f/JJ	.	16B-\	o-	.	.	.	.	.	.	.	.	.	.	.	.
*	*	*	*tremolo	*	*	*	*	*	*	*	*	*	*	*	*	*	*	*	*	*
8G\	6_	.	16B-/LL	.	16e-/LL	.	4.e-\	-ra-	.	.	.	.	.	.	.	.	.	.	.	.
.	.	.	16e-/	.	16g/	.	.	.	.	.	.	.	.	.	.	.	.	.	.	.
8r	.	.	16B-/	.	16e-/	.	.	.	.	.	.	.	.	.	.	.	.	.	.	.
.	.	.	16e-/	.	16g/	.	.	.	.	.	.	.	.	.	.	.	.	.	.	.
8G\	.	.	16B-/	.	16e-/	.	.	.	.	.	.	.	.	.	.	.	.	.	.	.
.	.	.	16e-/	.	16g/	.	.	.	.	.	.	.	.	.	.	.	.	.	.	.
8r	x	.	16B-/	.	16e-/	.	8e-\	ti-	.	.	.	.	.	.	.	.	.	.	.	.
.	.	.	16e-/JJ	.	16g/JJ	.	.	.	.	.	.	.	.	.	.	.	.	.	.	.
=25	=25	=25	=25	=25	=25	=25	=25	=25	=25	=25	=25	=25	=25	=25	=25	=25	=25	=25	=25	=25
8F\	6_ 3_	.	16d/LL	.	16f/LL	.	16e-\LL	-o-	.	.	.	.	.	.	.	.	.	.	.	.
.	.	.	16f/	.	16a-X/	.	16d\JJ	.	.	.	.	.	.	.	.	.	.	.	.	.
8r	.	.	16d/	.	16f/	.	4d\	-nem	.	.	.	.	.	.	.	.	.	.	.	.
.	.	.	16f/	.	16a-/	.	.	.	.	.	.	.	.	.	.	.	.	.	.	.
8F\	.	.	16d/	.	16f/	.	.	.	.	.	.	.	.	.	.	.	.	.	.	.
.	.	.	16f/	.	16a-/	.	.	.	.	.	.	.	.	.	.	.	.	.	.	.
8r	.	.	16d/	.	16f/	.	16d\LL	o-	.	.	.	.	.	.	.	.	.	.	.	.
.	.	.	16f/JJ	.	16a-X/JJ	.	16e-\JJ	.	.	.	.	.	.	.	.	.	.	.	.	.
8BB-/	x	.	16d/LL	.	16f/LL	.	8.f\	-ra-	.	.	.	.	.	.	.	.	.	.	.	.
.	.	.	16f/	.	16a-/	.	.	.	.	.	.	.	.	.	.	.	.	.	.	.
8r	.	.	16d/	.	16f/	.	.	.	.	.	.	.	.	.	.	.	.	.	.	.
.	.	.	16f/	.	16a-/	.	16d\	-ti-	.	.	.	.	.	.	.	.	.	.	.	.
!LO:LB:g=original	!	!	!	!	!	!	!	!	!	!	!	!	!	!	!	!	!	!	!	!
8BB-/	.	.	16d/	.	16f/	.	8B-\	-o-	.	.	.	.	.	.	.	.	.	.	.	.
.	.	.	16f/	.	16a-/	.	.	.	.	.	.	.	.	.	.	.	.	.	.	.
8r	.	.	16d/	.	16f/	.	8A-X\	-nem	.	.	.	.	.	.	.	.	.	.	.	.
.	.	.	16f/JJ	.	16a-/JJ	.	.	.	.	.	.	.	.	.	.	.	.	.	.	.
*	*	*	*Xtremolo	*	*Xtremolo	*	*	*	*	*	*	*	*	*	*	*	*	*	*	*
!	!	!	!	!	!	!	!LO:LB:g=original	!	!	!	!	!	!	!	!	!	!	!	!	!
=26	=26	=26	=26	=26	=26	=26	=26	=26	=26	=26	=26	=26	=26	=26	=26	=26	=26	=26	=26	=26
8E-\	4	.	16d/LL	.	16f/LL	.	4A-\	me-	.	1r	.	.	.	.	.	.	.	.	.	.
.	.	.	16f/	.	16a-/	.	.	.	.	.	.	.	.	.	.	.	.	.	.	.
8r	.	.	16d/	.	16f/	.	.	.	.	.	.	.	.	.	.	.	.	.	.	.
.	.	.	16f/JJ	.	16a-/JJ	.	.	.	.	.	.	.	.	.	.	.	.	.	.	.
!	!	!	!LO:LB:g=original	!	!	!	!	!	!	!	!	!	!	!	!	!	!	!	!	!
8EE-/	3	.	16e-/LL	.	16g/LL	.	4G\	-am	.	.	.	.	.	.	.	.	.	.	.	.
.	.	.	16g/	.	16b-/	.	.	.	.	.	.	.	.	.	.	.	.	.	.	.
8r	.	.	16e-/	.	16g/	.	.	.	.	.	.	.	.	.	.	.	.	.	.	.
.	.	.	16g/JJ	.	16b-/JJ	.	.	.	.	.	.	.	.	.	.	.	.	.	.	.
*	*	*	*	*	*tremolo	*	*	*	*	*	*	*	*	*	*	*	*	*	*	*
8E-\	.	.	16e-/LL	.	16g/LL	.	8r	.	.	.	.	.	.	.	.	.	.	.	.	.
.	.	.	16g/	.	16b-/	.	.	.	.	.	.	.	.	.	.	.	.	.	.	.
8r	.	.	16e-/	.	16g/	.	8G\	o-	.	.	.	.	.	.	.	.	.	.	.	.
.	.	.	16g/JJ	.	16b-/	.	.	.	.	.	.	.	.	.	.	.	.	.	.	.
8E-\	.	.	16e-/LL	.	16g/	.	8G\	-ra-	.	.	.	.	.	.	.	.	.	.	.	.
.	.	.	16g/	.	16b-/	.	.	.	.	.	.	.	.	.	.	.	.	.	.	.
8r	.	.	16e-/	.	16g/	.	8G\	-ti-	.	.	.	.	.	.	.	.	.	.	.	.
.	.	.	16g/JJ	.	16b-/JJ	.	.	.	.	.	.	.	.	.	.	.	.	.	.	.
=27	=27	=27	=27	=27	=27	=27	=27	=27	=27	=27	=27	=27	=27	=27	=27	=27	=27	=27	=27	=27
*	*	*	*tremolo	*	*	*	*	*	*	*	*	*	*	*	*	*	*	*	*	*
8c\	6 3	.	16f/LL	.	16an/LL	.	4.e-\	-o-	.	1r	.	.	.	.	.	.	.	.	.	.
.	.	.	16an/	.	16cc/	.	.	.	.	.	.	.	.	.	.	.	.	.	.	.
8r	.	.	16f/	.	16a/	.	.	.	.	.	.	.	.	.	.	.	.	.	.	.
.	.	.	16a/	.	16cc/	.	.	.	.	.	.	.	.	.	.	.	.	.	.	.
8c\	.	.	16f/	.	16a/	.	.	.	.	.	.	.	.	.	.	.	.	.	.	.
.	.	.	16a/	.	16cc/	.	.	.	.	.	.	.	.	.	.	.	.	.	.	.
8r	.	.	16f/	.	16a/	.	16c\LL	-nem	.	.	.	.	.	.	.	.	.	.	.	.
.	.	.	16an/JJ	.	16cc/JJ	.	16An\JJ	.	.	.	.	.	.	.	.	.	.	.	.	.
*	*	*	*Xtremolo	*	*Xtremolo	*	*	*	*	*	*	*	*	*	*	*	*	*	*	*
8B-\	3_	.	16d/LL	.	16b-\LL	.	8B-\	me-	.	.	.	.	.	.	.	.	.	.	.	.
.	.	.	16b-/	.	16dd\	.	.	.	.	.	.	.	.	.	.	.	.	.	.	.
8r	.	.	16d/	.	16b-\	.	8B-\	-am	.	.	.	.	.	.	.	.	.	.	.	.
.	.	.	16b-/JJ	.	16dd\JJ	.	.	.	.	.	.	.	.	.	.	.	.	.	.	.
8B-\	.	.	16d/LL	.	16b-\LL	.	8r	.	.	.	.	.	.	.	.	.	.	.	.	.
.	.	.	16b-/	.	16dd\	.	.	.	.	.	.	.	.	.	.	.	.	.	.	.
8r	x	.	16d/	.	16b-\	.	8B-\	o-	.	.	.	.	.	.	.	.	.	.	.	.
.	.	.	16b-/JJ	.	16dd\JJ	.	.	.	.	.	.	.	.	.	.	.	.	.	.	.
=28	=28	=28	=28	=28	=28	=28	=28	=28	=28	=28	=28	=28	=28	=28	=28	=28	=28	=28	=28	=28
*	*	*	*	*	*2\right	*	*	*	*	*	*	*	*	*	*	*	*	*	*	*
*	*	*	*	*	*tremolo	*	*	*	*	*	*	*	*	*	*	*	*	*	*	*
8c\	6_ 3_	.	16f/LL	.	16an\LL	.	8.e-\	-ra-	.	2r	.	2r	.	2r	.	2r	2r	2r	.	2r
.	.	.	16an/	.	16cc\	.	.	.	.	.	.	.	.	.	.	.	.	.	.	.
8r	.	.	16f/	.	16a\	.	.	.	.	.	.	.	.	.	.	.	.	.	.	.
.	.	.	16a/JJ	.	16cc\	.	16e-\	-ti-	.	.	.	.	.	.	.	.	.	.	.	.
8c\	.	.	16f/LL	.	16a\	.	8e-\	-o-	.	.	.	.	.	.	.	.	.	.	.	.
.	.	.	16a/	.	16cc\	.	.	.	.	.	.	.	.	.	.	.	.	.	.	.
8r	x	.	16f/	.	16a\	.	16c\LL	-nem	.	.	.	.	.	.	.	.	.	.	.	.
.	.	.	16a/JJ	.	16cc\JJ	.	16An\JJ	.	.	.	.	.	.	.	.	.	.	.	.	.
*	*	*	*	*	*Xtremolo	*	*	*	*	*	*	*	*	*	*	*	*	*	*	*
.	.	.	.	.	.	.	16qqA/	.	.	.	.	.	.	.	.	.	.	.	.	.
!	!	!	!	!	!	!	!	!	!LO:DY:a	!	!	!	!	!	!	!	!	!	!	!
4B-;\	.	.	4d;/	.	4b-;\	.	8B-\	me-	p	2r;	.	2r;	.	2r;	.	2r;	2r;	2r;	.	2r;
.	.	.	.	.	.	.	8B-;\	-am	.	.	.	.	.	.	.	.	.	.	.	.
4r	.	.	4r	.	4r	.	4r	.	.	.	.	.	.	.	.	.	.	.	.	.
!	!	!	!	!	!	!	!	!	!	!LO:LB:g=original	!	!LO:LB:g=original	!	!	!	!	!LO:LB:g=original	!	!	!
=29	=29	=29	=29	=29	=29	=29	=29	=29	=29	=29	=29	=29	=29	=29	=29	=29	=29	=29	=29	=29
!	!	!LO:MO:null:mod=!LO&colon;DY&colon;ed=brack	!	!	!	!	!	!	!	!	!	!	!	!	!	!	!	!	!	!
!LO:MO:mod=!LO&colon;TX&colon;a&colon;i&colon;t=Tutti	!	!	!	!	!	!	!	!	!	!	!	!	!	!	!	!	!	!	!	!
!LO:TX:a:t=Tutti	!	!LO:MO:null:mod=f	!	!LO:DY:a:t=f.	!	!LO:DY:a	!	!	!	!	!	!	!	!	!	!	!	!	!LO:DY:a:t=f.	!
8E-\L	.	.	8g/	f	16g/LL	f	4E-\	ad	.	4B-\	ad	4.g\	ad	4.ee-\	ad	8E-/L	8e-\L	4.ee-\	f	4.gg\
.	.	.	.	.	16b-/JJ	.	.	.	.	.	.	.	.	.	.	.	.	.	.	.
8E-\	.	.	4g/	.	4b-\	.	.	.	.	.	.	.	.	.	.	16E-/L	16e-\L	.	.	.
.	.	.	.	.	.	.	.	.	.	.	.	.	.	.	.	16E-/JJ	16e-\JJ	.	.	.
8E-\	.	.	.	.	.	.	4E-\	te	.	4B-\	te	.	.	.	.	8E-/L	8e-\L	.	.	.
8E-\J	.	.	16a-X/LL	.	16cc\LL	.	.	.	.	.	.	16a-\LL	te	16ff\LL	te	8E-/J	8e-\J	8ff\	.	8aa-\
.	.	.	16f/JJ	.	16dd\JJ	.	.	.	.	.	.	16f\JJ	.	16dd\JJ	.	.	.	.	.	.
!	!	!	!	!	!LO:LB:g=original	!	!	!	!	!	!	!	!	!LO:LB:g=original	!	!	!	!	!	!
8E-\L	.	.	8g/L	.	(16ee-\LL	.	8E-\	o-	.	8B-\	o-	8g\	o-	8ee-\	o-	8E-/L	8e-\L	8ee-\L	.	8gg\L
.	.	.	.	.	16b-\)	.	.	.	.	.	.	.	.	.	.	.	.	.	.	.
8E-\J	.	.	16g/L|	.	16b-\|	.	8E-\	-mnis	.	8B-\	-mnis	8g\	-mnis	8ee-\	-mnis	8E-/J	8e-\J	8ee-\J	.	8gg\J
.	.	.	16g/JJ|	.	16b-\JJ|	.	.	.	.	.	.	.	.	.	.	.	.	.	.	.
4r	.	.	(16g/LL	.	(16b-/LL	.	4r	.	.	4r	.	4r	.	4r	.	4r	4r	4r	.	4r
.	.	.	16f/)	.	16a-/)	.	.	.	.	.	.	.	.	.	.	.	.	.	.	.
.	.	.	(16f/	.	(16a-/	.	.	.	.	.	.	.	.	.	.	.	.	.	.	.
.	.	.	16e-/JJ)	.	16g/JJ)	.	.	.	.	.	.	.	.	.	.	.	.	.	.	.
!	!	!	!LO:LB:g=original	!	!	!	!LO:LB:g=original	!	!	!	!	!	!	!	!	!LO:LB:g=original	!	!	!	!
=30	=30	=30	=30	=30	=30	=30	=30	=30	=30	=30	=30	=30	=30	=30	=30	=30	=30	=30	=30	=30
*	*	*	*	*	*	*	*	*	*	*	*ij	*	*ij	*	*ij	*	*	*	*	*
8E-\L	.	.	16e-/LL	.	16g/LL	.	4E-\	o-	.	4B-\	o-	4g\	o-	4ee-\	o-	8G/L	8e-\L	4ee-\	.	4gg\
.	.	.	16g/JJ	.	16b-/JJ	.	.	.	.	.	.	.	.	.	.	.	.	.	.	.
8E-\	.	.	4g/	.	4b-/	.	.	.	.	.	.	.	.	.	.	16G/L	16e-\L	.	.	.
.	.	.	.	.	.	.	.	.	.	.	.	.	.	.	.	16G/JJ	16e-\JJ	.	.	.
8E-\	.	.	.	.	.	.	4E-\	-mnis	.	4B-\	-mnis	4g\	-mnis	4ee-\	-mnis	8G/L	8e-\L	4ee-\	.	4gg\
*	*	*	*	*	*	*	*	*	*	*	*Xij	*	*Xij	*	*Xij	*	*	*	*	*
8E-\J	.	.	16f/LL	.	16a-/LL	.	.	.	.	.	.	.	.	.	.	8G/J	8e-\J	.	.	.
.	.	.	16e-/JJ	.	16g/JJ	.	.	.	.	.	.	.	.	.	.	.	.	.	.	.
!LO:LB:g=original	!	!	!	!	!	!	!	!LO:MO:mod=ca-	!	!	!LO:MO:mod=ca-	!	!LO:MO:mod=ca-	!	!LO:MO:mod=ca-	!	!	!	!	!
8BB-/L	.	.	(16d/LL	.	(16f/LL	.	8B-\	Ca-	.	8B-\	Ca-	8f\	Ca-	8dd\	Ca-	8B-/L	8f\L	8dd\L	.	8ff\L
.	.	.	16f/)	.	16a-/)	.	.	.	.	.	.	.	.	.	.	.	.	.	.	.
8BB-/J	.	.	16f/|	.	16a-/|	.	8BB-/	-ro	.	8B-\	-ro	8f\	-ro	8dd\	-ro	8B-/J	8f\J	8dd\J	.	8ff\J
.	.	.	16f/JJ|	.	16a-/JJ|	.	.	.	.	.	.	.	.	.	.	.	.	.	.	.
4r	.	.	(16f/LL	.	(16a-/LL	.	4r	.	.	4r	.	4r	.	4r	.	4r	4r	4r	.	4r
.	.	.	16e-/)	.	16g/)	.	.	.	.	.	.	.	.	.	.	.	.	.	.	.
.	.	.	(16e-/	.	(16g/	.	.	.	.	.	.	.	.	.	.	.	.	.	.	.
.	.	.	16d/JJ)	.	16f/JJ)	.	.	.	.	.	.	.	.	.	.	.	.	.	.	.
!	!	!	!	!	!	!	!	!	!	!	!	!	!	!	!	!	!	!LO:LB:g=original	!	!
=31	=31	=31	=31	=31	=31	=31	=31	=31	=31	=31	=31	=31	=31	=31	=31	=31	=31	=31	=31	=31
8D\L	6 5	.	8f/L	.	16f/LL|	.	4D\	ad	.	4B-\	ad	4a-\	ad	4ff\	ad	4B-/	4f\	4ff\	.	4aa-\
.	.	.	.	.	(32b-/L	.	.	.	.	.	.	.	.	.	.	.	.	.	.	.
.	.	.	.	.	32cc/JJJ)	.	.	.	.	.	.	.	.	.	.	.	.	.	.	.
8D\	.	.	8f/	.	16b-/LL|	.	.	.	.	.	.	.	.	.	.	.	.	.	.	.
.	.	.	.	.	16b-/JJ|	.	.	.	.	.	.	.	.	.	.	.	.	.	.	.
8E-\	3	.	8g/	.	16g/LL	.	4E-\	te	.	4B-\	te	4g\	te	4ee-\	te	4e-\	4g\	4ee-\	.	4gg\
.	.	.	.	.	16b-/	.	.	.	.	.	.	.	.	.	.	.	.	.	.	.
8E-\J	.	.	8g/J	.	16cc/	.	.	.	.	.	.	.	.	.	.	.	.	.	.	.
.	.	.	.	.	16b-/JJ	.	.	.	.	.	.	.	.	.	.	.	.	.	.	.
8F\L	6_ 3_	.	8a-/L	.	16dd\LL|	.	4F\	o-	.	4B-\	o-	4a-\	o-	4dd\	o-	4B-/	4f\	4dd\	.	4aa-\
.	.	.	.	.	(32b-\L	.	.	.	.	.	.	.	.	.	.	.	.	.	.	.
.	.	.	.	.	32cc\JJJ)	.	.	.	.	.	.	.	.	.	.	.	.	.	.	.
8F\	.	.	8a-/	.	16b-\LL|	.	.	.	.	.	.	.	.	.	.	.	.	.	.	.
.	.	.	.	.	16b-\JJ|	.	.	.	.	.	.	.	.	.	.	.	.	.	.	.
8E-\	3_	.	8g/	.	16ee-\LL	.	4E-\	-mnis	.	4B-\	-mnis	4g\	-mnis	4ee-\	-mnis	4G/	4e-\	4ee-\	.	4gg\
.	.	.	.	.	16b-\	.	.	.	.	.	.	.	.	.	.	.	.	.	.	.
8E-\J	.	.	8g/J	.	16g\	.	.	.	.	.	.	.	.	.	.	.	.	.	.	.
.	.	.	.	.	16b-\JJ	.	.	.	.	.	.	.	.	.	.	.	.	.	.	.
=32	=32	=32	=32	=32	=32	=32	=32	=32	=32	=32	=32	=32	=32	=32	=32	=32	=32	=32	=32	=32
*	*	*	*	*	*	*	*	*ij	*	*	*ij	*	*ij	*	*ij	*	*	*	*	*
8D\L	6_ 5_	.	8f/L	.	16f/LL	.	4D\	o-	.	4B-\	o-	4a-\	o-	4ff\	o-	4B-/	4f\	4ff\	.	4aa-\
.	.	.	.	.	(32b-/L	.	.	.	.	.	.	.	.	.	.	.	.	.	.	.
.	.	.	.	.	32cc/JJJ)	.	.	.	.	.	.	.	.	.	.	.	.	.	.	.
8D\	.	.	8f/	.	16b-/LL|	.	.	.	.	.	.	.	.	.	.	.	.	.	.	.
.	.	.	.	.	16b-/JJ|	.	.	.	.	.	.	.	.	.	.	.	.	.	.	.
8E-\	3	.	8g/	.	16g\LL	.	4E-\	-mnis	.	4B-\	-mnis	4g\	-mnis	4ee-\	-mnis	4e-\	4g\	4ee-\	.	4gg\
*	*	*	*	*	*	*	*	*Xij	*	*	*Xij	*	*Xij	*	*Xij	*	*	*	*	*
.	.	.	.	.	16b-\	.	.	.	.	.	.	.	.	.	.	.	.	.	.	.
8E-\J	.	.	8g/J	.	16ee-\	.	.	.	.	.	.	.	.	.	.	.	.	.	.	.
.	.	.	.	.	16b-\JJ	.	.	.	.	.	.	.	.	.	.	.	.	.	.	.
!	!	!	!	!	!LO:LB:g=original	!	!	!LO:MO:mod=ca-	!	!	!LO:MO:mod=ca-	!	!LO:MO:mod=ca-	!	!LO:MO:mod=ca-	!	!	!	!	!
8F\L	6 3	.	8a-/L	.	16dd\LL|	.	4F\	Ca-	.	4B-\	Ca-	4a-\	Ca-	4dd\	Ca-	4B-/	4f\	4dd\	.	4aa-\
.	.	.	.	.	(32b-\L	.	.	.	.	.	.	.	.	.	.	.	.	.	.	.
.	.	.	.	.	32cc\JJJ)	.	.	.	.	.	.	.	.	.	.	.	.	.	.	.
8F\	.	.	8a-/	.	16b-\LL|	.	.	.	.	.	.	.	.	.	.	.	.	.	.	.
.	.	.	.	.	16b-\JJ|	.	.	.	.	.	.	.	.	.	.	.	.	.	.	.
8E-\	3	.	8g/	.	16ee-\LL	.	4E-\	-ro	.	4B-\	-ro	4g\	-ro	4ee-\	-ro	4G/	4e-\	4ee-\	.	4gg\
.	.	.	.	.	16b-\	.	.	.	.	.	.	.	.	.	.	.	.	.	.	.
8E-\J	.	.	8g/J	.	16g\	.	.	.	.	.	.	.	.	.	.	.	.	.	.	.
.	.	.	.	.	16b-\JJ	.	.	.	.	.	.	.	.	.	.	.	.	.	.	.
=33	=33	=33	=33	=33	=33	=33	=33	=33	=33	=33	=33	=33	=33	=33	=33	=33	=33	=33	=33	=33
*tremolo	*	*	*tremolo	*	*	*	*	*	*	*	*	*	*	*	*	*	*	*	*	*
!	!	!	!LO:SIC:v:o=8e-L 8B-/	!	!	!	!	!	!	!	!	!	!	!	!	!	!	!	!	!
8D\L	6 5	.	8dL 8B-/	.	16f/LL	.	4D\	ad	.	4B-\	ad	4a-\	ad	4ff\	ad	2B-/	2f\	2b-\	.	2ff\
.	.	.	.	.	(32b-/L	.	.	.	.	.	.	.	.	.	.	.	.	.	.	.
.	.	.	.	.	32cc/JJJ)	.	.	.	.	.	.	.	.	.	.	.	.	.	.	.
!	!	!	!LO:SIC:v:o=8e- 8B-/	!	!	!	!	!	!	!	!	!	!	!	!	!	!	!	!	!
8D\	.	.	8d 8B-/	.	16b-/LL|	.	.	.	.	.	.	.	.	.	.	.	.	.	.	.
.	.	.	.	.	16b-/JJ|	.	.	.	.	.	.	.	.	.	.	.	.	.	.	.
!	!	!	!LO:SIC:v:o=8e- 8B-/	!	!	!	!	!	!	!	!	!	!	!	!	!	!	!	!	!
8D\	.	.	8d 8B-/	.	(8.f/L	.	4D\	te	.	4B-\	te	4a-\	te	4ff\	te	.	.	.	.	.
!	!	!	!LO:SIC:v:o=8e-J 8B-/	!	!	!	!	!	!	!	!	!	!	!	!	!	!	!	!	!
8D\J	.	.	8dJ 8B-/	.	.	.	.	.	.	.	.	.	.	.	.	.	.	.	.	.
*Xtremolo	*	*	*Xtremolo	*	*	*	*	*	*	*	*	*	*	*	*	*	*	*	*	*
.	.	.	.	.	32g/LL	.	.	.	.	.	.	.	.	.	.	.	.	.	.	.
.	.	.	.	.	32a-/JJJ)	.	.	.	.	.	.	.	.	.	.	.	.	.	.	.
8E-\L	.	.	16e-/LL|	.	16g/LL|	.	4E-\	o-	.	4B-\	o-	4g\	o-	4ee-\	o-	2e-\	2g\	2b-\	.	2gg\
.	.	.	(32g/L	.	(32b-/L	.	.	.	.	.	.	.	.	.	.	.	.	.	.	.
.	.	.	32a-/JJJ)	.	32cc/JJJ)	.	.	.	.	.	.	.	.	.	.	.	.	.	.	.
8E-\	.	.	16g/LL|	.	16b-\LL|	.	.	.	.	.	.	.	.	.	.	.	.	.	.	.
.	.	.	16g/JJ|	.	16b-\JJ|	.	.	.	.	.	.	.	.	.	.	.	.	.	.	.
8E-\	.	.	(8.g/L	.	(8.ee-\L	.	4E-\	-mnis	.	4B-\	-mnis	4g\	-mnis	4ee-\	-mnis	.	.	.	.	.
8E-\J	.	.	.	.	.	.	.	.	.	.	.	.	.	.	.	.	.	.	.	.
.	.	.	16b-/Jk)	.	16dd-X\Jk)	.	.	.	.	.	.	.	.	.	.	.	.	.	.	.
!	!	!	!LO:LB:g=original	!	!	!	!	!	!	!	!	!	!	!	!	!	!	!	!	!
=34	=34	=34	=34	=34	=34	=34	=34	=34	=34	=34	=34	=34	=34	=34	=34	=34	=34	=34	=34	=34
!LO:TX:t=P:problem=mixed beam	!	!	!	!	!	!	!	!LO:MO:mod=ca-	!	!	!LO:MO:mod=ca-	!	!LO:MO:mod=ca-	!	!LO:MO:mod=ca-	!	!	!	!	!
8A-\L	6	.	(32a-/LLL	.	(32cc\LLL	.	8A-\	Ca-	.	8c\	Ca-	8a-\	Ca-	8ff\	Ca-	4f\	4a-\	8cc\L	.	4aa-\
.	.	.	32b-/	.	32ddn\	.	.	.	.	.	.	.	.	.	.	.	.	.	.	.
!	!	!	!	!	!LO:SIC:o=32ee-\)	!	!	!	!	!	!	!	!	!	!	!	!	!	!	!
.	.	.	32cc/	.	32ee-	.	.	.	.	.	.	.	.	.	.	.	.	.	.	.
!	!	!	!	!	!LO:SIC:o=32dd\JJJ	!	!	!	!	!	!	!	!	!	!	!	!	!	!	!
.	.	.	32b-/JJJ)	.	32ddJJJ)	.	.	.	.	.	.	.	.	.	.	.	.	.	.	.
8A-\	.	.	(32cc/LLL	.	(32ee-\LLL	.	8A-\	-ro	.	8c\	-ro	8a-\	-ro	8ff\	-ro	.	.	8ff\	.	.
.	.	.	32a-/	.	32cc\	.	.	.	.	.	.	.	.	.	.	.	.	.	.	.
.	.	.	32g/	.	32b-\	.	.	.	.	.	.	.	.	.	.	.	.	.	.	.
.	.	.	32f/JJJ)	.	32a-\JJJ)	.	.	.	.	.	.	.	.	.	.	.	.	.	.	.
8B-\	4	.	8e-/L	.	8g/L	.	8B-\	ve-	.	8B-\	Ve-	8g\	ve-	8ee-\	ve-	8e-\L	8g\L	8ee-\	.	8gg\L
8BB-/J	3	.	8d/J	.	8f/J	.	8BB-/	-ni-	.	8B-\	-ni-	8f\	-ni-	8dd\	-ni-	8B-\J	8f\J	8dd\J	.	8ff\J
8E-\L	.	.	8e-/L	.	8g/L	.	4E-\	-et	.	4B-\	-et	4g\	-et	4ee-\	-et	8G/L	8e-\L	8ee-\L	.	8gg\L
!	!	!	!	!	!	!	!	!	!	!	!	!	!	!	!	!LO:SIC:o=8G/	!	!	!	!
8E-\J	.	.	8e-/J	.	8g/J	.	.	.	.	.	.	.	.	.	.	8GJ	8e-\J	8ee-\J	.	8gg\J
!	!	!	!	!	!	!	!	!	!	!	!	!	!	!	!	!LO:MO:mod=4G	!	!	!	!
4E-\	.	.	4e-/	.	4g/	.	4r	.	.	4r	.	4r	.	4r	.	8G/J	4e-\	4ee-\	.	4gg\
!	!	!	!	!	!	!	!	!	!	!	!	!	!	!	!	!LO:MO:mod=.	!	!	!	!
.	.	.	.	.	.	.	.	.	.	.	.	.	.	.	.	8r	.	.	.	.
==	==	==	==	==	==	==	==	==	==	==	==	==	==	==	==	==	==	==	==	==
*-	*-	*-	*-	*-	*-	*-	*-	*-	*-	*-	*-	*-	*-	*-	*-	*-	*-	*-	*-	*-
!!!system-decoration: [(g1)][(g2)][(g3)][(g4)]<s11>
!!LO:MO:ori
!!!RDF**dynam: f = "for."
!!!RDF**dynam: p = "p."
!!LO:MO:end
!!!RDF**kern: | = vertical stroke
!!!filter-modern: sic -sq | autostem -r | tie -s | shed -k -e "s/[<>]//g" | shed -e "s/LO:DY:(a|b|rj)/LO:dy:$1/L" | shed -e "s/TX(.*):t=P:/tx$1:t=P:/LG" | shed -e "s/^(\d+[\/\\]right)/$1yy/I; s/^(\d+[\/\\]left)/$1yy/I" | modori -m
!!!ENC: Berenika Jozajtis
!!!END: 2021-12-01
!!!EED: Andrzej Kubiczek
!!!EEV: 2021-12-16
!!!ENC-modern: Marta Lawrence
!!!END-modern: 2022-07-26
